**kern	**kern	**kern	**kern	**kern	**kern	**kern	**kern	**kern	**kern	**kern	**kern	**kern	**kern	**kern	**kern
*ITrd7c12	*	*	*	*	*	*	*	*	*ITrd4c7	*ITrd4c7	*	*	*	*	*
*	*Icello	*Icello	*Iviola	*Ivioln	*Ivioln	*Itimpa	*Itromp	*Itromp	*	*	*Ifagot	*Ifagot	*Ioboe	*Ioboe	*Iflt
*Icbass	*I"Violoncello	*I"Violoncello Solo	*I"Viola	*I#2	*I#1	*I"Timpani	*I#2	*I#1	*Icor	*Icor	*I#2	*I#1	*I#2	*I#1	*I#1
*I"Basso	*	*	*	*I"Violino II	*I"Violino I	*	*I"Tromba 2	*I"Tromba 1	*I#2	*I#1	*I"Fagotto 2	*I"Fagotto 1	*I"Oboe 2	*I"Oboe 1	*I"Flauto 1
*	*	*	*	*	*	*	*	*	*I"Corno 2	*I"Corno 1	*	*	*	*	*
=1	=1	=1	=1	=1	=1	=1	=1	=1	=1	=1	=1	=1	=1	=1	=1
*M3/4	*staff:8	*staff:9	*staff:10	*staff:11	*staff:12	*staff:13	*staff:14	*staff:14	*staff:15	*staff:15	*staff:16	*staff:16	*staff:17	*staff:17	*staff:18
*	*clefF4	*clefF4	*clefC3	*clefG2	*clefG2	*clefF4	*clefG2	*clefG2	*clefG2	*clefG2	*clefF4	*clefF4	*clefG2	*clefG2	*clefG2
*	*k[b-]	*k[b-]	*k[b-]	*k[b-]	*k[b-]	*M3/4	*M3/4	*M3/4	*M3/4	*M3/4	*k[b-]	*k[b-]	*k[b-]	*k[b-]	*k[b-]
*	*M3/4	*M3/4	*M3/4	*M3/4	*M3/4	*	*	*	*	*	*M3/4	*M3/4	*M3/4	*M3/4	*M3/4
2.ryy	8F'	8F'	8c'	8A'	8f	2.r	2.r	2.r	2.r	2.r	2.r	2.r	2.r	2.r	2.r
.	.	.	.	.	32gQ	.	.	.	.	.	.	.	.	.	.
.	.	.	.	.	32fQ	.	.	.	.	.	.	.	.	.	.
.	.	.	.	.	32eQ	.	.	.	.	.	.	.	.	.	.
.	8r	8r	8r	8r	16.f	.	.	.	.	.	.	.	.	.	.
.	.	.	.	.	32a	.	.	.	.	.	.	.	.	.	.
.	8F'	8F'	8c'	8A'	8..cc	.	.	.	.	.	.	.	.	.	.
.	8r	8r	8r	8r	.	.	.	.	.	.	.	.	.	.	.
.	.	.	.	.	32a	.	.	.	.	.	.	.	.	.	.
.	8F'	8F'	8A'	8f'	8..dd	.	.	.	.	.	.	.	.	.	.
.	8r	8r	8r	8r	.	.	.	.	.	.	.	.	.	.	.
.	.	.	.	.	32bn	.	.	.	.	.	.	.	.	.	.
=2	=2	=2	=2	=2	=2	=2	=2	=2	=2	=2	=2	=2	=2	=2	=2
2.ryy	2E	[4E	2G	2.c	24cc	2.r	2.r	2.r	2.r	2.r	2.r	2.r	2.r	2.r	2.r
.	.	.	.	.	32ddQ	.	.	.	.	.	.	.	.	.	.
.	.	.	.	.	32ccQ	.	.	.	.	.	.	.	.	.	.
.	.	.	.	.	32bnQ	.	.	.	.	.	.	.	.	.	.
.	.	.	.	.	24cc	.	.	.	.	.	.	.	.	.	.
.	.	.	.	.	24ee	.	.	.	.	.	.	.	.	.	.
.	.	.	.	.	24gg^	.	.	.	.	.	.	.	.	.	.
.	.	.	.	.	24ee	.	.	.	.	.	.	.	.	.	.
.	.	.	.	.	24cc	.	.	.	.	.	.	.	.	.	.
.	.	24E]	.	.	4b-	.	.	.	.	.	.	.	.	.	.
.	.	24G	.	.	.	.	.	.	.	.	.	.	.	.	.
.	.	24B-	.	.	.	.	.	.	.	.	.	.	.	.	.
.	.	24d^	.	.	.	.	.	.	.	.	.	.	.	.	.
.	.	24B-	.	.	.	.	.	.	.	.	.	.	.	.	.
.	.	24G	.	.	.	.	.	.	.	.	.	.	.	.	.
.	4F	24F	4A	.	4a	.	.	.	.	.	.	.	.	.	.
.	.	24A	.	.	.	.	.	.	.	.	.	.	.	.	.
.	.	24d^	.	.	.	.	.	.	.	.	.	.	.	.	.
.	.	24c	.	.	.	.	.	.	.	.	.	.	.	.	.
.	.	24A	.	.	.	.	.	.	.	.	.	.	.	.	.
.	.	24F	.	.	.	.	.	.	.	.	.	.	.	.	.
=3	=3	=3	=3	=3	=3	=3	=3	=3	=3	=3	=3	=3	=3	=3	=3
2.ryy	4BB-'	4B-'	4d'	8d	24g	2.r	2.r	2.r	2.r	2.r	2.r	2.r	2.r	2.r	2.r
.	.	.	.	.	32aQ	.	.	.	.	.	.	.	.	.	.
.	.	.	.	.	32gQ	.	.	.	.	.	.	.	.	.	.
.	.	.	.	.	32f#Q	.	.	.	.	.	.	.	.	.	.
.	.	.	.	.	24g	.	.	.	.	.	.	.	.	.	.
.	.	.	.	.	24ee-^	.	.	.	.	.	.	.	.	.	.
.	.	.	.	8r	24dd	.	.	.	.	.	.	.	.	.	.
.	.	.	.	.	24b-	.	.	.	.	.	.	.	.	.	.
.	.	.	.	.	24g	.	.	.	.	.	.	.	.	.	.
.	4C'	4c'	4c'	8A	24fn	.	.	.	.	.	.	.	.	.	.
.	.	.	.	.	24c	.	.	.	.	.	.	.	.	.	.
.	.	.	.	.	24f	.	.	.	.	.	.	.	.	.	.
.	.	.	.	8r	[8cc^	.	.	.	.	.	.	.	.	.	.
.	4C'	4C'	4E'	8B-	24cc]	.	.	.	.	.	.	.	.	.	.
.	.	.	.	.	24b-	.	.	.	.	.	.	.	.	.	.
.	.	.	.	.	24dd	.	.	.	.	.	.	.	.	.	.
.	.	.	.	8r	24b-	.	.	.	.	.	.	.	.	.	.
.	.	.	.	.	24g	.	.	.	.	.	.	.	.	.	.
.	.	.	.	.	24en	.	.	.	.	.	.	.	.	.	.
*	*	*	*	*	*	*	*	*	*	*	*clefC4	*clefC4	*	*	*
=4	=4	=4	=4	=4	=4	=4	=4	=4	=4	=4	=4	=4	=4	=4	=4
*	*staff:1	*staff:2	*staff:3	*staff:4	*staff:5	*	*	*	*	*	*staff:6	*staff:6	*	*	*staff:7
*staff:1	*	*	*	*	*	*	*	*	*	*	*	*	*	*	*
*clefF4	*	*	*	*	*	*	*	*	*	*	*	*	*	*	*
*k[b-]	*	*	*	*	*	*	*	*	*	*	*	*	*	*	*
4.FFF	4.FF	4FF	4E	4B-	4g	2.ryy	2.ryy	2.ryy	2.ryy	2.ryy	2.r	4r	2.ryy	2.ryy	2.r
.	.	8r	8F	8A	8f	.	.	.	.	.	.	8r	.	.	.
96ryy	8F	24A	8F'	8A	8r	.	.	.	.	.	.	8f'	.	.	.
96ryy	.	.	.	.	.	.	.	.	.	.	.	.	.	.	.
96ryy	.	.	.	.	.	.	.	.	.	.	.	.	.	.	.
96ryy	.	.	.	.	.	.	.	.	.	.	.	.	.	.	.
96ryy	.	24F	.	.	.	.	.	.	.	.	.	.	.	.	.
96ryy	.	.	.	.	.	.	.	.	.	.	.	.	.	.	.
96ryy	.	.	.	.	.	.	.	.	.	.	.	.	.	.	.
96ryy	.	.	.	.	.	.	.	.	.	.	.	.	.	.	.
96ryy	.	24A	.	.	.	.	.	.	.	.	.	.	.	.	.
96ryy	.	.	.	.	.	.	.	.	.	.	.	.	.	.	.
96ryy	.	.	.	.	.	.	.	.	.	.	.	.	.	.	.
96ryy	.	.	.	.	.	.	.	.	.	.	.	.	.	.	.
96ryy	8G	24B-	8F'	8B-	4r	.	.	.	.	.	.	8f'	.	.	.
96ryy	.	.	.	.	.	.	.	.	.	.	.	.	.	.	.
96ryy	.	.	.	.	.	.	.	.	.	.	.	.	.	.	.
96ryy	.	.	.	.	.	.	.	.	.	.	.	.	.	.	.
96ryy	.	24F	.	.	.	.	.	.	.	.	.	.	.	.	.
96ryy	.	.	.	.	.	.	.	.	.	.	.	.	.	.	.
96ryy	.	.	.	.	.	.	.	.	.	.	.	.	.	.	.
96ryy	.	.	.	.	.	.	.	.	.	.	.	.	.	.	.
96ryy	.	24B-	.	.	.	.	.	.	.	.	.	.	.	.	.
96ryy	.	.	.	.	.	.	.	.	.	.	.	.	.	.	.
96ryy	.	.	.	.	.	.	.	.	.	.	.	.	.	.	.
96ryy	.	.	.	.	.	.	.	.	.	.	.	.	.	.	.
96ryy	8A	24c	8F'	8c	.	.	.	.	.	.	.	8f'	.	.	.
96ryy	.	.	.	.	.	.	.	.	.	.	.	.	.	.	.
96ryy	.	.	.	.	.	.	.	.	.	.	.	.	.	.	.
96ryy	.	.	.	.	.	.	.	.	.	.	.	.	.	.	.
96ryy	.	24F	.	.	.	.	.	.	.	.	.	.	.	.	.
96ryy	.	.	.	.	.	.	.	.	.	.	.	.	.	.	.
96ryy	.	.	.	.	.	.	.	.	.	.	.	.	.	.	.
96ryy	.	.	.	.	.	.	.	.	.	.	.	.	.	.	.
96ryy	.	24c	.	.	.	.	.	.	.	.	.	.	.	.	.
96ryy	.	.	.	.	.	.	.	.	.	.	.	.	.	.	.
96ryy	.	.	.	.	.	.	.	.	.	.	.	.	.	.	.
96ryy	.	.	.	.	.	.	.	.	.	.	.	.	.	.	.
!!WARNING: This measure contained too few data records
=5	=5	=5	=5	=5	=5	=5	=5	=5	=5	=5	=5	=5	=5	=5	=5
2.ryy	2.B-	24d	4F	2.d	2.dd	2.ryy	2.ryy	2.ryy	2.ryy	2.ryy	2.r	4f	2.ryy	2.ryy	2.ddd
.	.	24B-	.	.	.	.	.	.	.	.	.	.	.	.	.
.	.	24F	.	.	.	.	.	.	.	.	.	.	.	.	.
.	.	24d	.	.	.	.	.	.	.	.	.	.	.	.	.
.	.	24B-	.	.	.	.	.	.	.	.	.	.	.	.	.
.	.	24F	.	.	.	.	.	.	.	.	.	.	.	.	.
.	.	24d	4F#	.	.	.	.	.	.	.	.	4f#	.	.	.
.	.	24B-	.	.	.	.	.	.	.	.	.	.	.	.	.
.	.	24F#	.	.	.	.	.	.	.	.	.	.	.	.	.
.	.	24d	.	.	.	.	.	.	.	.	.	.	.	.	.
.	.	24B-	.	.	.	.	.	.	.	.	.	.	.	.	.
.	.	24F#	.	.	.	.	.	.	.	.	.	.	.	.	.
.	.	24d	4G	.	.	.	.	.	.	.	.	4g	.	.	.
.	.	24B-	.	.	.	.	.	.	.	.	.	.	.	.	.
.	.	24G	.	.	.	.	.	.	.	.	.	.	.	.	.
.	.	24d	.	.	.	.	.	.	.	.	.	.	.	.	.
.	.	24B-	.	.	.	.	.	.	.	.	.	.	.	.	.
.	.	24G	.	.	.	.	.	.	.	.	.	.	.	.	.
=6	=6	=6	=6	=6	=6	=6	=6	=6	=6	=6	=6	=6	=6	=6	=6
2.ryy	4B-	24d-	4G	4d-	4e	2.ryy	2.ryy	2.ryy	2.ryy	2.ryy	2.r	4e	2.ryy	2.ryy	4ee
.	.	24B-	.	.	.	.	.	.	.	.	.	.	.	.	.
.	.	24G	.	.	.	.	.	.	.	.	.	.	.	.	.
.	.	24d-	.	.	.	.	.	.	.	.	.	.	.	.	.
.	.	24B-	.	.	.	.	.	.	.	.	.	.	.	.	.
.	.	24G	.	.	.	.	.	.	.	.	.	.	.	.	.
.	4A	24c	4A	2c	[4f	.	.	.	.	.	.	[4fn	.	.	[4ff
.	.	24A	.	.	.	.	.	.	.	.	.	.	.	.	.
.	.	24Fn	.	.	.	.	.	.	.	.	.	.	.	.	.
.	.	24c	.	.	.	.	.	.	.	.	.	.	.	.	.
.	.	24A	.	.	.	.	.	.	.	.	.	.	.	.	.
.	.	24F	.	.	.	.	.	.	.	.	.	.	.	.	.
.	4A	24c	4Fn	.	16f]	.	.	.	.	.	.	16f]	.	.	16ff]
.	.	24A	.	.	.	.	.	.	.	.	.	.	.	.	.
.	.	.	.	.	32gQ	.	.	.	.	.	.	.	.	.	32ggQ
.	.	.	.	.	32fQ	.	.	.	.	.	.	.	.	.	32ffQ
.	.	.	.	.	32eQ	.	.	.	.	.	.	.	.	.	32eeQ
.	.	.	.	.	16f	.	.	.	.	.	.	16F	.	.	16ff
.	.	24F	.	.	.	.	.	.	.	.	.	.	.	.	.
.	.	24c	.	.	16a	.	.	.	.	.	.	16A	.	.	16aa
.	.	24A	.	.	.	.	.	.	.	.	.	.	.	.	.
.	.	.	.	.	16cc	.	.	.	.	.	.	16c	.	.	16ccc
.	.	24F	.	.	.	.	.	.	.	.	.	.	.	.	.
=7	=7	=7	=7	=7	=7	=7	=7	=7	=7	=7	=7	=7	=7	=7	=7
2.ryy	2E^	24c	4C^	2g^	8.cc^	2.ryy	2.ryy	2.ryy	2.ryy	2.ryy	2.r	8.c^	2.ryy	2.ryy	8.ccc^
.	.	24B-	.	.	.	.	.	.	.	.	.	.	.	.	.
.	.	24G	.	.	.	.	.	.	.	.	.	.	.	.	.
.	.	24c	.	.	.	.	.	.	.	.	.	.	.	.	.
.	.	24B-	.	.	.	.	.	.	.	.	.	.	.	.	.
.	.	.	.	.	32dd	.	.	.	.	.	.	32d	.	.	32ddd
.	.	24G	.	.	.	.	.	.	.	.	.	.	.	.	.
.	.	.	.	.	32cc	.	.	.	.	.	.	32c	.	.	32ccc
.	.	24c	4c	.	4b-	.	.	.	.	.	.	4B-	.	.	4bb-
.	.	24B-	.	.	.	.	.	.	.	.	.	.	.	.	.
.	.	24G	.	.	.	.	.	.	.	.	.	.	.	.	.
.	.	24c	.	.	.	.	.	.	.	.	.	.	.	.	.
.	.	24B-	.	.	.	.	.	.	.	.	.	.	.	.	.
.	.	24G	.	.	.	.	.	.	.	.	.	.	.	.	.
.	4F	24c	4c	4f	4a	.	.	.	.	.	.	4A	.	.	4aa
.	.	24A	.	.	.	.	.	.	.	.	.	.	.	.	.
.	.	24F	.	.	.	.	.	.	.	.	.	.	.	.	.
.	.	24c	.	.	.	.	.	.	.	.	.	.	.	.	.
.	.	24A	.	.	.	.	.	.	.	.	.	.	.	.	.
.	.	24F	.	.	.	.	.	.	.	.	.	.	.	.	.
=8	=8	=8	=8	=8	=8	=8	=8	=8	=8	=8	=8	=8	=8	=8	=8
*	*staff:9	*staff:10	*staff:11	*staff:12	*staff:13	*	*	*	*	*	*staff:14	*staff:14	*	*	*staff:15
2.ryy	2C	24C	2c	8..a^	8..cc^	2.ryy	2.ryy	2.ryy	2.ryy	2.ryy	2.r	8..c^	2.ryy	2.ryy	8..ccc^
.	.	24F	.	.	.	.	.	.	.	.	.	.	.	.	.
.	.	24A	.	.	.	.	.	.	.	.	.	.	.	.	.
.	.	24c	.	.	.	.	.	.	.	.	.	.	.	.	.
.	.	24A	.	.	.	.	.	.	.	.	.	.	.	.	.
.	.	24F	.	.	.	.	.	.	.	.	.	.	.	.	.
.	.	.	.	32f	32a	.	.	.	.	.	.	32A	.	.	32aa
.	.	24C	.	8e	8g	.	.	.	.	.	.	8G'	.	.	8gg'
.	.	24C	.	.	.	.	.	.	.	.	.	.	.	.	.
.	.	24BBn	.	.	.	.	.	.	.	.	.	.	.	.	.
.	.	24C	.	8r	8r	.	.	.	.	.	.	8r	.	.	8r
.	.	24GG	.	.	.	.	.	.	.	.	.	.	.	.	.
.	.	24EE	.	.	.	.	.	.	.	.	.	.	.	.	.
.	4r	8CC	4r	4r	4r	.	.	.	.	.	.	4r	.	.	4r
.	.	8r	.	.	.	.	.	.	.	.	.	.	.	.	.
=9	=9	=9	=9	=9	=9	=9	=9	=9	=9	=9	=9	=9	=9	=9	=9
2.ryy	2.r	4c	4c	4e-	24g	2.ryy	2.ryy	2.ryy	2.ryy	2.ryy	2.r	2.r	2.ryy	2.ryy	24g
.	.	.	.	.	24ee-	.	.	.	.	.	.	.	.	.	24ee-
.	.	.	.	.	24dd	.	.	.	.	.	.	.	.	.	24dd
.	.	.	.	.	24cc	.	.	.	.	.	.	.	.	.	24cc
.	.	.	.	.	24bn	.	.	.	.	.	.	.	.	.	24bn
.	.	.	.	.	24cc	.	.	.	.	.	.	.	.	.	24cc
.	.	2dz	2dz	2fz	24b'z	.	.	.	.	.	.	.	.	.	24b'z
.	.	.	.	.	24dd'	.	.	.	.	.	.	.	.	.	24dd'
.	.	.	.	.	24ff'	.	.	.	.	.	.	.	.	.	24ff'
.	.	.	.	.	24gg'	.	.	.	.	.	.	.	.	.	24gg'
.	.	.	.	.	24aa-'	.	.	.	.	.	.	.	.	.	24aa-'
.	.	.	.	.	24gg'	.	.	.	.	.	.	.	.	.	24gg'
.	.	.	.	.	24ff'	.	.	.	.	.	.	.	.	.	24ff'
.	.	.	.	.	24ee-'	.	.	.	.	.	.	.	.	.	24ee-'
.	.	.	.	.	24dd'	.	.	.	.	.	.	.	.	.	24dd'
.	.	.	.	.	24cc'	.	.	.	.	.	.	.	.	.	24cc'
.	.	.	.	.	24b'	.	.	.	.	.	.	.	.	.	24b'
.	.	.	.	.	24dd'	.	.	.	.	.	.	.	.	.	24dd'
=10	=10	=10	=10	=10	=10	=10	=10	=10	=10	=10	=10	=10	=10	=10	=10
2.ryy	2.r	2e-	2e-	2g	24dd	2.ryy	2.ryy	2.ryy	2.ryy	2.ryy	2.r	2.r	2.ryy	2.ryy	24dd
.	.	.	.	.	24bn	.	.	.	.	.	.	.	.	.	24bn
.	.	.	.	.	24cc	.	.	.	.	.	.	.	.	.	24cc
.	.	.	.	.	24ee-'	.	.	.	.	.	.	.	.	.	24ee-'
.	.	.	.	.	24gg'	.	.	.	.	.	.	.	.	.	24gg'
.	.	.	.	.	24bbn'	.	.	.	.	.	.	.	.	.	24bbn'
.	.	.	.	.	24ccc	.	.	.	.	.	.	.	.	.	24ccc
.	.	.	.	.	24gg	.	.	.	.	.	.	.	.	.	24gg
.	.	.	.	.	24bb'	.	.	.	.	.	.	.	.	.	24bb'
.	.	.	.	.	24ccc	.	.	.	.	.	.	.	.	.	24ccc
.	.	.	.	.	24gg	.	.	.	.	.	.	.	.	.	24gg
.	.	.	.	.	24ccc'	.	.	.	.	.	.	.	.	.	24ccc'
.	.	4r	4r	4r	8eee-X'	.	.	.	.	.	.	.	.	.	8eee-X'
.	.	.	.	.	8r	.	.	.	.	.	.	.	.	.	8r
=11	=11	=11	=11	=11	=11	=11	=11	=11	=11	=11	=11	=11	=11	=11	=11
*	*staff:1	*staff:2	*staff:3	*staff:4	*staff:5	*	*	*	*	*	*staff:6	*staff:6	*staff:7	*staff:7	*staff:8
2.ryy	2B-	2B-	2.G 2.en	2.d-	24een'	2.ryy	2.ryy	2.ryy	2.ryy	2.ryy	2.r	4d-	2.g	2.een	24een'
.	.	.	.	.	24ddd-'	.	.	.	.	.	.	.	.	.	24ddd-'
.	.	.	.	.	24ccc'	.	.	.	.	.	.	.	.	.	24ccc'
.	.	.	.	.	24bb-X'	.	.	.	.	.	.	.	.	.	24bb-X'
.	.	.	.	.	24aa-'	.	.	.	.	.	.	.	.	.	24aa-'
.	.	.	.	.	24gg'	.	.	.	.	.	.	.	.	.	24gg'
.	.	.	.	.	24ff	.	.	.	.	.	.	4B-	.	.	24ff
.	.	.	.	.	24ee	.	.	.	.	.	.	.	.	.	24ee
.	.	.	.	.	24gg'	.	.	.	.	.	.	.	.	.	24gg'
.	.	.	.	.	24dd-X'	.	.	.	.	.	.	.	.	.	24dd-X'
.	.	.	.	.	24cc'	.	.	.	.	.	.	.	.	.	24cc'
.	.	.	.	.	24b-'	.	.	.	.	.	.	.	.	.	24b-'
.	4B-	4B-	.	.	24a-X'	.	.	.	.	.	.	4G	.	.	24a-X'
.	.	.	.	.	24g'	.	.	.	.	.	.	.	.	.	24g'
.	.	.	.	.	24f'	.	.	.	.	.	.	.	.	.	24f'
.	.	.	.	.	24en'	.	.	.	.	.	.	.	.	.	24en'
.	.	.	.	.	24dd-X'	.	.	.	.	.	.	.	.	.	24dd-X'
.	.	.	.	.	24e'	.	.	.	.	.	.	.	.	.	24e'
=12	=12	=12	=12	=12	=12	=12	=12	=12	=12	=12	=12	=12	=12	=12	=12
2.ryy	2.Bn	2.Bn	2.dn	2.dn	24f'	2.ryy	2.ryy	2.ryy	2.ryy	2.ryy	2.r	8A-	8a-	8ff	24f'
.	.	.	.	.	24ddn'	.	.	.	.	.	.	.	.	.	24ddn'
.	.	.	.	.	24f'	.	.	.	.	.	.	.	.	.	24f'
.	.	.	.	.	24g'	.	.	.	.	.	.	8r	8g	8gg	24g'
.	.	.	.	.	24dd'	.	.	.	.	.	.	.	.	.	24dd'
.	.	.	.	.	24g'	.	.	.	.	.	.	.	.	.	24g'
.	.	.	.	.	24a-'	.	.	.	.	.	.	4r	8f	8aa-X	24a-'
.	.	.	.	.	24dd'	.	.	.	.	.	.	.	.	.	24dd'
.	.	.	.	.	24a-'	.	.	.	.	.	.	.	.	.	24a-'
.	.	.	.	.	24g'	.	.	.	.	.	.	.	8g	8gg	24g'
.	.	.	.	.	24dd'	.	.	.	.	.	.	.	.	.	24dd'
.	.	.	.	.	24g'	.	.	.	.	.	.	.	.	.	24g'
.	.	.	.	.	24f	.	.	.	.	.	.	4r	8a-	8ff	24f
.	.	.	.	.	24a-	.	.	.	.	.	.	.	.	.	24a-
.	.	.	.	.	24dd'	.	.	.	.	.	.	.	.	.	24dd'
.	.	.	.	.	24f	.	.	.	.	.	.	.	8g	8ff	24f
.	.	.	.	.	24g	.	.	.	.	.	.	.	.	.	24g
.	.	.	.	.	24dd'	.	.	.	.	.	.	.	.	.	24dd'
=13	=13	=13	=13	=13	=13	=13	=13	=13	=13	=13	=13	=13	=13	=13	=13
2.ryy	8c	8c	8c	24en	24en	2.ryy	2.ryy	2.ryy	2.ryy	2.ryy	8e	8g	8g	8een	24en
.	.	.	.	24g	24g	.	.	.	.	.	.	.	.	.	24g
.	.	.	.	24cc	24cc	.	.	.	.	.	.	.	.	.	24cc
.	8F	8F	8F	24a	24an	.	.	.	.	.	8d	8f	8an	24dd	24an
.	.	.	.	24f	24dd	.	.	.	.	.	.	.	.	24ff	24dd
.	.	.	.	24d	24ff	.	.	.	.	.	.	.	.	24aa	24ff
.	4G	4G	4G	4c 4e	24g	.	.	.	.	.	4c	4e	4e	4cc	24g
.	.	.	.	.	24cc	.	.	.	.	.	.	.	.	.	24cc
.	.	.	.	.	24ee	.	.	.	.	.	.	.	.	.	24ee
.	.	.	.	.	24gg'	.	.	.	.	.	.	.	.	.	24gg'
.	.	.	.	.	24gg'	.	.	.	.	.	.	.	.	.	24gg'
.	.	.	.	.	24gg'	.	.	.	.	.	.	.	.	.	24gg'
.	4GG	4GG	8..F	4Bn 4d	24gg	.	.	.	.	.	4Bn	4d	4f	4bn	24gg
.	.	.	.	.	24ff#	.	.	.	.	.	.	.	.	.	24ff#
.	.	.	.	.	24ffn	.	.	.	.	.	.	.	.	.	24ffn
.	.	.	.	.	24ee	.	.	.	.	.	.	.	.	.	24ee
.	.	.	.	.	24ff	.	.	.	.	.	.	.	.	.	24ff
.	.	.	.	.	24bn	.	.	.	.	.	.	.	.	.	24bn
.	.	.	32D	.	.	.	.	.	.	.	.	.	.	.	.
=14	=14	=14	=14	=14	=14	=14	=14	=14	=14	=14	=14	=14	=14	=14	=14
*	*staff:12	*staff:13	*staff:14	*staff:15	*staff:16	*	*	*	*	*	*staff:17	*staff:17	*staff:18	*staff:18	*staff:19
2.ryy	8C	24C	[2.C	2G 2e	8dd	2.ryy	2.ryy	2.ryy	2.ryy	2.ryy	4c	4c	4e	8dd	8dd
.	.	24E	.	.	.	.	.	.	.	.	.	.	.	.	.
.	.	24G	.	.	.	.	.	.	.	.	.	.	.	.	.
.	8r	24C	.	.	8cc	.	.	.	.	.	.	.	.	8cc	8cc
.	.	24E	.	.	.	.	.	.	.	.	.	.	.	.	.
.	.	24G	.	.	.	.	.	.	.	.	.	.	.	.	.
.	8C	24C	.	.	24r	.	.	.	.	.	4ryy	4r	4ryy	4r	24r
.	.	24E	.	.	24eee'	.	.	.	.	.	.	.	.	.	24eee'
.	.	24G	.	.	24ddd'	.	.	.	.	.	.	.	.	.	24ddd'
.	8r	24C	.	.	24ccc'	.	.	.	.	.	.	.	.	.	24ccc'
.	.	24E	.	.	24bbn'	.	.	.	.	.	.	.	.	.	24bbn'
.	.	24G	.	.	24aa'	.	.	.	.	.	.	.	.	.	24aa'
*	*	*	*	*	*	*	*	*	*	*	*clefF4	*clefF4	*	*	*
.	8C	24C	.	4A- 4f	24gg	.	.	.	.	.	4r	8..Bn	4bn	4ff	24gg
.	.	24F	.	.	24ff	.	.	.	.	.	.	.	.	.	24ff
.	.	24A-	.	.	24dd'	.	.	.	.	.	.	.	.	.	24dd'
.	8r	24C	.	.	24ff	.	.	.	.	.	.	.	.	.	24ff
.	.	24F	.	.	24dd	.	.	.	.	.	.	.	.	.	24dd
.	.	24A-	.	.	24bn'	.	.	.	.	.	.	.	.	.	24bn'
.	.	.	.	.	.	.	.	.	.	.	.	32d	.	.	.
=15	=15	=15	=15	=15	=15	=15	=15	=15	=15	=15	=15	=15	=15	=15	=15
2.ryy	8C	24C	2.C_	2G 2e	24bn	2.ryy	2.ryy	2.ryy	2.ryy	2.ryy	2.r	4c	8cc	8ee	24bn
.	.	24E	.	.	24cc	.	.	.	.	.	.	.	.	.	24cc
.	.	24G	.	.	24ee'	.	.	.	.	.	.	.	.	.	24ee'
.	8r	24C	.	.	24gg	.	.	.	.	.	.	.	8ryy	8r	24gg
.	.	24E	.	.	24bbn	.	.	.	.	.	.	.	.	.	24bbn
.	.	24G	.	.	24ccc'	.	.	.	.	.	.	.	.	.	24ccc'
.	8C	24C	.	.	24eee'	.	.	.	.	.	.	4r	4ryy	4r	24eee'
.	.	24E	.	.	24ddd'	.	.	.	.	.	.	.	.	.	24ddd'
.	.	24G	.	.	24ccc'	.	.	.	.	.	.	.	.	.	24ccc'
.	8r	24C	.	.	24bb'	.	.	.	.	.	.	.	.	.	24bb'
.	.	24E	.	.	24aa'	.	.	.	.	.	.	.	.	.	24aa'
.	.	24G	.	.	24gg'	.	.	.	.	.	.	.	.	.	24gg'
.	8C	24C	.	4A- 4f	24ff	.	.	.	.	.	.	8..Bn	4bn	4ff	24ff
.	.	24F	.	.	24dd	.	.	.	.	.	.	.	.	.	24dd
.	.	24A-	.	.	24b	.	.	.	.	.	.	.	.	.	24b
.	8r	24C	.	.	24aa-	.	.	.	.	.	.	.	.	.	24aa-
.	.	24F	.	.	24ff	.	.	.	.	.	.	.	.	.	24ff
.	.	24A-	.	.	24b	.	.	.	.	.	.	.	.	.	24b
.	.	.	.	.	.	.	.	.	.	.	.	32d	.	.	.
=16	=16	=16	=16	=16	=16	=16	=16	=16	=16	=16	=16	=16	=16	=16	=16
2.ryy	4.C	4F	4.C]	4A- 4f	4bn	2.ryy	2.ryy	2.ryy	2.ryy	2.ryy	2.r	4d	4bn	4ff	4bn
.	.	8E	.	8G 8e	8cc	.	.	.	.	.	.	8c	8cc	8ee	8cc
.	8r	8r	8r	8r	8r	.	.	.	.	.	.	8r	8ryy	8r	8r
.	4r	4r	4r	4r	4r	.	.	.	.	.	.	4r	4ryy	4r	4r
=17	=17	=17	=17	=17	=17	=17	=17	=17	=17	=17	=17	=17	=17	=17	=17
*	*staff:1	*staff:2	*staff:3	*staff:4	*staff:5	*staff:6	*staff:7	*staff:7	*staff:8	*staff:8	*staff:9	*staff:9	*staff:10	*staff:10	*staff:11
2.ryy	2FF	2FF	2c	2An	8f	4FF	2c	2cc	2A	2f	2A	4f	2a	2ff	8ff
.	.	.	.	.	32gQ	.	.	.	.	.	.	.	.	.	32ggQ
.	.	.	.	.	32fQ	.	.	.	.	.	.	.	.	.	32ffQ
.	.	.	.	.	32eQ	.	.	.	.	.	.	.	.	.	32eeQ
.	.	.	.	.	16.f	.	.	.	.	.	.	.	.	.	16.ff
.	.	.	.	.	32a	.	.	.	.	.	.	.	.	.	32aa
.	.	.	.	.	8..cc	4r	.	.	.	.	.	4c	.	.	8..ccc
.	.	.	.	.	32a	.	.	.	.	.	.	.	.	.	32aa
.	4Fz	4Fz	8..Bnz	4A-z	8..ddz	4FFz	4r	4ddz	4F	4fz	4A-	4Bnz	4a-	4bnz	8..dddz
.	.	.	32d	.	32bn	.	.	.	.	.	.	.	.	.	32bbn
=18	=18	=18	=18	=18	=18	=18	=18	=18	=18	=18	=18	=18	=18	=18	=18
2.ryy	2E	[4G	4c	8..G	24cc	4C	2.c	2.cc	2c	2g	2G	4c	4g	[2cc	24ccc
.	.	.	.	.	32ddQ	.	.	.	.	.	.	.	.	.	32dddQ
.	.	.	.	.	32ccQ	.	.	.	.	.	.	.	.	.	32cccQ
.	.	.	.	.	32bnQ	.	.	.	.	.	.	.	.	.	32bbnQ
.	.	.	.	.	24cc	.	.	.	.	.	.	.	.	.	24ccc
.	.	.	.	.	24ee	.	.	.	.	.	.	.	.	.	24eee
.	.	.	.	.	24gg^	.	.	.	.	.	.	.	.	.	24ggg^
.	.	.	.	.	24ee	.	.	.	.	.	.	.	.	.	24eee
.	.	.	.	.	24cc	.	.	.	.	.	.	.	.	.	24ccc
.	.	.	.	32c	.	.	.	.	.	.	.	.	.	.	.
.	.	24G]	4G	2c	4b-	4r	.	.	.	.	.	4B-X	4b-X	.	4bb-
.	.	24G	.	.	.	.	.	.	.	.	.	.	.	.	.
.	.	24B-	.	.	.	.	.	.	.	.	.	.	.	.	.
.	.	24d^	.	.	.	.	.	.	.	.	.	.	.	.	.
.	.	24B-	.	.	.	.	.	.	.	.	.	.	.	.	.
.	.	24G	.	.	.	.	.	.	.	.	.	.	.	.	.
.	4F	24F	4A	.	4a	4r	.	.	4f	4a	4F	4An	4an	8.cc]	4aa
.	.	24A	.	.	.	.	.	.	.	.	.	.	.	.	.
.	.	24d^	.	.	.	.	.	.	.	.	.	.	.	.	.
.	.	24c	.	.	.	.	.	.	.	.	.	.	.	.	.
.	.	24A	.	.	.	.	.	.	.	.	.	.	.	.	.
.	.	.	.	.	.	.	.	.	.	.	.	.	.	16cc#	.
.	.	24F	.	.	.	.	.	.	.	.	.	.	.	.	.
=19	=19	=19	=19	=19	=19	=19	=19	=19	=19	=19	=19	=19	=19	=19	=19
2.ryy	4BB-	4B-	4d	4d	24g	4r	4r	4dd	4ryy	4r	4B-	4d	8..g	8..dd	24gg
.	.	.	.	.	32aQ	.	.	.	.	.	.	.	.	.	32aaQ
.	.	.	.	.	32gQ	.	.	.	.	.	.	.	.	.	32ggQ
.	.	.	.	.	32f#Q	.	.	.	.	.	.	.	.	.	32ff#Q
.	.	.	.	.	24g	.	.	.	.	.	.	.	.	.	24gg
.	.	.	.	.	24ee-^	.	.	.	.	.	.	.	.	.	24eee-^
.	.	.	.	.	24dd	.	.	.	.	.	.	.	.	.	24ddd
.	.	.	.	.	24b-	.	.	.	.	.	.	.	.	.	24bb-
.	.	.	.	.	24g	.	.	.	.	.	.	.	.	.	24gg
.	.	.	.	.	.	.	.	.	.	.	.	.	32b-	32gg	.
.	4C	4c	4c	4An	24fn	4C	2c	2cc	4A	4f	4c	4c	4a	4ff	24ffn
.	.	.	.	.	24c	.	.	.	.	.	.	.	.	.	24cc
.	.	.	.	.	24f	.	.	.	.	.	.	.	.	.	24ff
.	.	.	.	.	[8cc^	.	.	.	.	.	.	.	.	.	[8ccc^
.	4C	4C	4E	4B-	24cc]	24C	.	.	4c	4g	4B-	4e	4g	4ee	24ccc]
.	.	.	.	.	24b-	24C	.	.	.	.	.	.	.	.	24bb-
.	.	.	.	.	24dd	24C	.	.	.	.	.	.	.	.	24ddd
.	.	.	.	.	24b-	24C	.	.	.	.	.	.	.	.	24bb-
.	.	.	.	.	24g	24C	.	.	.	.	.	.	.	.	24gg
.	.	.	.	.	24en	24C	.	.	.	.	.	.	.	.	24ee
=20	=20	=20	=20	=20	=20	=20	=20	=20	=20	=20	=20	=20	=20	=20	=20
2.ryy	4.FF	4FF	4E	4B-	4g	4FF	4c	4cc	4c	4g	4B-	4e	4b-	4ee	4gg
.	.	8r	8F	8A	8f	8r	4ryy	4r	8f	8a	8A	8f	8a	8ff	8ff
.	8F	24A	8f'	8A	8r	8FF	.	.	8F'	8f'	8F	8f'	4ff	8a	8r
.	.	24F	.	.	.	.	.	.	.	.	.	.	.	.	.
.	.	24A	.	.	.	.	.	.	.	.	.	.	.	.	.
.	8G	24B-	8f'	8B-	4r	8FF	4ryy	4r	8F'	8f'	8G	8f'	.	8b-	4r
.	.	24F	.	.	.	.	.	.	.	.	.	.	.	.	.
.	.	24B-	.	.	.	.	.	.	.	.	.	.	.	.	.
.	8A	24c	8f'	8c	.	8FF	.	.	8F'	8f'	8A	8f'	8ee-	8cc	.
.	.	24F	.	.	.	.	.	.	.	.	.	.	.	.	.
.	.	24c	.	.	.	.	.	.	.	.	.	.	.	.	.
=21	=21	=21	=21	=21	=21	=21	=21	=21	=21	=21	=21	=21	=21	=21	=21
*	*staff:12	*staff:13	*staff:14	*staff:15	*staff:16	*staff:17	*staff:18	*staff:18	*staff:19	*staff:19	*staff:20	*staff:20	*staff:21	*staff:21	*staff:22
2.ryy	2.B-	24d	4f	2.d	2.dd	4FF	2.r	2.r	4F	4f	2.B-	4f	4dd	2.dd	2.ddd
.	.	24B-	.	.	.	.	.	.	.	.	.	.	.	.	.
.	.	24F	.	.	.	.	.	.	.	.	.	.	.	.	.
.	.	24d	.	.	.	.	.	.	.	.	.	.	.	.	.
.	.	24B-	.	.	.	.	.	.	.	.	.	.	.	.	.
.	.	24F	.	.	.	.	.	.	.	.	.	.	.	.	.
.	.	24d	4f#	.	.	4r	.	.	4ryy	4r	.	4f#	4f#	.	.
.	.	24B-	.	.	.	.	.	.	.	.	.	.	.	.	.
.	.	24F#	.	.	.	.	.	.	.	.	.	.	.	.	.
.	.	24d	.	.	.	.	.	.	.	.	.	.	.	.	.
.	.	24B-	.	.	.	.	.	.	.	.	.	.	.	.	.
.	.	24F#	.	.	.	.	.	.	.	.	.	.	.	.	.
.	.	24d	4g	.	.	4r	.	.	4ryy	4r	.	4g	4g	.	.
.	.	24B-	.	.	.	.	.	.	.	.	.	.	.	.	.
.	.	24G	.	.	.	.	.	.	.	.	.	.	.	.	.
.	.	24d	.	.	.	.	.	.	.	.	.	.	.	.	.
.	.	24B-	.	.	.	.	.	.	.	.	.	.	.	.	.
.	.	24G	.	.	.	.	.	.	.	.	.	.	.	.	.
=22	=22	=22	=22	=22	=22	=22	=22	=22	=22	=22	=22	=22	=22	=22	=22
2.ryy	4B-	24d-	4G	4d-	4e	2.r	2.r	2.r	4g	4g	4G	4e	4g	4ee	4ee
.	.	24B-	.	.	.	.	.	.	.	.	.	.	.	.	.
.	.	24G	.	.	.	.	.	.	.	.	.	.	.	.	.
.	.	24d-	.	.	.	.	.	.	.	.	.	.	.	.	.
.	.	24B-	.	.	.	.	.	.	.	.	.	.	.	.	.
.	.	24G	.	.	.	.	.	.	.	.	.	.	.	.	.
.	4A	24c	4A	2c	[4f	.	.	.	4f	4a	[4A	4fn	4a	2ff	[4ff
.	.	24A	.	.	.	.	.	.	.	.	.	.	.	.	.
.	.	24Fn	.	.	.	.	.	.	.	.	.	.	.	.	.
.	.	24c	.	.	.	.	.	.	.	.	.	.	.	.	.
.	.	24A	.	.	.	.	.	.	.	.	.	.	.	.	.
.	.	24F	.	.	.	.	.	.	.	.	.	.	.	.	.
.	4A	24c	4Fn	.	16f]	.	.	.	4ryy	4r	16A]	16f	4cc	.	16ff]
.	.	24A	.	.	.	.	.	.	.	.	.	.	.	.	.
.	.	.	.	.	32gQ	.	.	.	.	.	.	.	.	.	32ggQ
.	.	.	.	.	32fQ	.	.	.	.	.	.	.	.	.	32ffQ
.	.	.	.	.	32eQ	.	.	.	.	.	.	.	.	.	32eeQ
.	.	.	.	.	16f	.	.	.	.	.	16F	16F	.	.	16ff
.	.	24F	.	.	.	.	.	.	.	.	.	.	.	.	.
.	.	24c	.	.	16a	.	.	.	.	.	16A	16A	.	.	16aa
.	.	24A	.	.	.	.	.	.	.	.	.	.	.	.	.
.	.	.	.	.	16cc	.	.	.	.	.	16c	16c	.	.	16ccc
.	.	24F	.	.	.	.	.	.	.	.	.	.	.	.	.
=23	=23	=23	=23	=23	=23	=23	=23	=23	=23	=23	=23	=23	=23	=23	=23
2.ryy	2Ez	24cz	4Cz	2gz	8.ccz	4C	2.c	[2.cc	2c	2gz	4E	4cz	2bb-	2ggz	8.cccz
.	.	24B-	.	.	.	.	.	.	.	.	.	.	.	.	.
.	.	24G	.	.	.	.	.	.	.	.	.	.	.	.	.
.	.	24c	.	.	.	.	.	.	.	.	.	.	.	.	.
.	.	24B-	.	.	.	.	.	.	.	.	.	.	.	.	.
.	.	.	.	.	32dd	.	.	.	.	.	.	.	.	.	32ddd
.	.	24G	.	.	.	.	.	.	.	.	.	.	.	.	.
.	.	.	.	.	32cc	.	.	.	.	.	.	.	.	.	32ccc
.	.	24c	4c	.	4b-	4r	.	.	.	.	4G	4B-	.	.	4bb-
.	.	24B-	.	.	.	.	.	.	.	.	.	.	.	.	.
.	.	24G	.	.	.	.	.	.	.	.	.	.	.	.	.
.	.	24c	.	.	.	.	.	.	.	.	.	.	.	.	.
.	.	24B-	.	.	.	.	.	.	.	.	.	.	.	.	.
.	.	24G	.	.	.	.	.	.	.	.	.	.	.	.	.
.	4F	24c	4c	4f	4a	24C	.	.	4f	4a	4F	4A	4aa	4aa	4aa
.	.	24A	.	.	.	24C	.	.	.	.	.	.	.	.	.
.	.	24F	.	.	.	24C	.	.	.	.	.	.	.	.	.
.	.	24c	.	.	.	24C	.	.	.	.	.	.	.	.	.
.	.	24A	.	.	.	24C	.	.	.	.	.	.	.	.	.
.	.	24F	.	.	.	24C	.	.	.	.	.	.	.	.	.
=24	=24	=24	=24	=24	=24	=24	=24	=24	=24	=24	=24	=24	=24	=24	=24
*	*staff:1	*staff:2	*staff:3	*staff:4	*staff:5	*staff:6	*staff:7	*staff:7	*staff:8	*staff:8	*staff:9	*staff:9	*staff:10	*staff:10	*staff:11
2.ryy	2C	24C	2c	8..a	8..cc	4C	4c	4cc]	4f	4a	4F	4A	8..aa	8..ccc	8..ccc
.	.	24F	.	.	.	.	.	.	.	.	.	.	.	.	.
.	.	24A	.	.	.	.	.	.	.	.	.	.	.	.	.
.	.	24c	.	.	.	.	.	.	.	.	.	.	.	.	.
.	.	24A	.	.	.	.	.	.	.	.	.	.	.	.	.
.	.	24F	.	.	.	.	.	.	.	.	.	.	.	.	.
.	.	.	.	32f	32a	.	.	.	.	.	.	.	32ff	32aa	32aa
.	.	24C	.	8e	8g	4r	4ryy	4r	8c	8g	4E	4G	8ee	8gg	8gg
.	.	24C	.	.	.	.	.	.	.	.	.	.	.	.	.
.	.	24BBn	.	.	.	.	.	.	.	.	.	.	.	.	.
.	.	24C	.	8r	8r	.	.	.	8ryy	8r	.	.	8ryy	8r	8r
.	.	24GG	.	.	.	.	.	.	.	.	.	.	.	.	.
.	.	24EE	.	.	.	.	.	.	.	.	.	.	.	.	.
.	4r	8CC	4r	4r	4r	4r	4ryy	4r	24C	24c	4ryy	4r	4ryy	4r	4r
.	.	.	.	.	.	.	.	.	24C	24c	.	.	.	.	.
.	.	.	.	.	.	.	.	.	24C	24c	.	.	.	.	.
.	.	8r	.	.	.	.	.	.	24C	24c	.	.	.	.	.
.	.	.	.	.	.	.	.	.	24C	24c	.	.	.	.	.
.	.	.	.	.	.	.	.	.	24C	24c	.	.	.	.	.
=25	=25	=25	=25	=25	=25	=25	=25	=25	=25	=25	=25	=25	=25	=25	=25
2.ryy	2.r	4c	4c	4e-	24g	2.r	2.r	2.r	4C	4c	2.r	2.r	2.r	4ee-	24g
.	.	.	.	.	24ee-	.	.	.	.	.	.	.	.	.	24ee-
.	.	.	.	.	24dd	.	.	.	.	.	.	.	.	.	24dd
.	.	.	.	.	24cc	.	.	.	.	.	.	.	.	.	24cc
.	.	.	.	.	24bn	.	.	.	.	.	.	.	.	.	24bn
.	.	.	.	.	24cc	.	.	.	.	.	.	.	.	.	24cc
.	.	2dz	2dz	2fz	24b'z	.	.	.	4ryy	4r	.	.	.	2bn	24bz
.	.	.	.	.	24dd'	.	.	.	.	.	.	.	.	.	24dd'
.	.	.	.	.	24ff'	.	.	.	.	.	.	.	.	.	24ff'
.	.	.	.	.	24gg'	.	.	.	.	.	.	.	.	.	24gg'
.	.	.	.	.	24aa-'	.	.	.	.	.	.	.	.	.	24aa-'
.	.	.	.	.	24gg'	.	.	.	.	.	.	.	.	.	24gg'
.	.	.	.	.	24ff'	.	.	.	4ryy	4r	.	.	.	.	24ff'
.	.	.	.	.	24ee-'	.	.	.	.	.	.	.	.	.	24ee-'
.	.	.	.	.	24dd'	.	.	.	.	.	.	.	.	.	24dd'
.	.	.	.	.	24cc'	.	.	.	.	.	.	.	.	.	24cc'
.	.	.	.	.	24b'	.	.	.	.	.	.	.	.	.	24b'
.	.	.	.	.	24dd'	.	.	.	.	.	.	.	.	.	24dd'
=26	=26	=26	=26	=26	=26	=26	=26	=26	=26	=26	=26	=26	=26	=26	=26
2.ryy	2.r	2e-	2e-	2g	24dd	4r	2ryy	4r	2.r	2.r	2.r	4r	4r	[2cc	24dd
.	.	.	.	.	24bn	.	.	.	.	.	.	.	.	.	24bn
.	.	.	.	.	24cc	.	.	.	.	.	.	.	.	.	24cc
.	.	.	.	.	24ee-'	.	.	.	.	.	.	.	.	.	24ee-'
.	.	.	.	.	24gg'	.	.	.	.	.	.	.	.	.	24gg'
.	.	.	.	.	24bbn'	.	.	.	.	.	.	.	.	.	24bbn'
.	.	.	.	.	24ccc	4r	.	4r	.	.	.	4r	4r	.	24ccc
.	.	.	.	.	24gg	.	.	.	.	.	.	.	.	.	24gg
.	.	.	.	.	24bb'	.	.	.	.	.	.	.	.	.	24bb'
.	.	.	.	.	24ccc	.	.	.	.	.	.	.	.	.	24ccc
.	.	.	.	.	24gg	.	.	.	.	.	.	.	.	.	24gg
.	.	.	.	.	24ccc'	.	.	.	.	.	.	.	.	.	24ccc'
.	.	4r	4r	4r	8eee-X'	24C	24c	24g	.	.	.	24r	24r	24cc]	8eee-X'
.	.	.	.	.	.	24C	24c	24g	.	.	.	24c	24g	24ee-	.
.	.	.	.	.	.	24C	24c	24g	.	.	.	24c	24g	24ee-	.
.	.	.	.	.	8r	24C	24c	24g	.	.	.	24c	24g	24ee-	8r
.	.	.	.	.	.	24C	24c	24g	.	.	.	24c	24g	24ee-	.
.	.	.	.	.	.	24C	24c	24g	.	.	.	24c	24g	24ee-	.
=27	=27	=27	=27	=27	=27	=27	=27	=27	=27	=27	=27	=27	=27	=27	=27
*	*staff:12	*staff:13	*staff:14	*staff:15	*staff:16	*staff:17	*staff:18	*staff:18	*staff:19	*staff:19	*staff:20	*staff:20	*staff:21	*staff:21	*staff:22
2.ryy	2.B-	2.B-	2.G 2.en	2.d-	24een'	24C	2G	2g	2.g	2.g	2.d-	2.d-	2.g	2.een	24ee'
.	.	.	.	.	24ddd-'	24C	.	.	.	.	.	.	.	.	24ddd-'
.	.	.	.	.	24ccc'	24C	.	.	.	.	.	.	.	.	24ccc'
.	.	.	.	.	24bb-X'	24C	.	.	.	.	.	.	.	.	24bb-X'
.	.	.	.	.	24aa-'	24C	.	.	.	.	.	.	.	.	24aa-'
.	.	.	.	.	24gg'	24C	.	.	.	.	.	.	.	.	24gg'
.	.	.	.	.	24ff	24C	.	.	.	.	.	.	.	.	24ff
.	.	.	.	.	24ee	24C	.	.	.	.	.	.	.	.	24ee
.	.	.	.	.	24gg	24C	.	.	.	.	.	.	.	.	24gg
.	.	.	.	.	24dd-X'	24C	.	.	.	.	.	.	.	.	24dd-X'
.	.	.	.	.	24cc'	24C	.	.	.	.	.	.	.	.	24cc'
.	.	.	.	.	24b-'	24C	.	.	.	.	.	.	.	.	24b-'
.	.	.	.	.	24a-X'	24C	4ryy	4r	.	.	.	.	.	.	24a-X'
.	.	.	.	.	24g'	24C	.	.	.	.	.	.	.	.	24g'
.	.	.	.	.	24f'	24C	.	.	.	.	.	.	.	.	24f'
.	.	.	.	.	24en'	24C	.	.	.	.	.	.	.	.	24en'
.	.	.	.	.	24dd-X'	24C	.	.	.	.	.	.	.	.	24dd-X'
.	.	.	.	.	24e'	24C	.	.	.	.	.	.	.	.	24e'
=28	=28	=28	=28	=28	=28	=28	=28	=28	=28	=28	=28	=28	=28	=28	=28
2.ryy	2.Bn	2.Bn	2.dn	2.dn	24f'	4FF	2.r	2.r	4f	4f	8A-	8A-	8a-	8ff	24f'
.	.	.	.	.	24ddn'	.	.	.	.	.	.	.	.	.	24ddn'
.	.	.	.	.	24f'	.	.	.	.	.	.	.	.	.	24f'
.	.	.	.	.	24g'	.	.	.	.	.	8ryy	8r	8g	8gg	24g'
.	.	.	.	.	24dd'	.	.	.	.	.	.	.	.	.	24dd'
.	.	.	.	.	24g'	.	.	.	.	.	.	.	.	.	24g'
.	.	.	.	.	24a-'	4r	.	.	4ryy	4r	4ryy	4r	8f	8aa-X	24a-'
.	.	.	.	.	24dd'	.	.	.	.	.	.	.	.	.	24dd'
.	.	.	.	.	24a-'	.	.	.	.	.	.	.	.	.	24a-'
.	.	.	.	.	24g'	.	.	.	.	.	.	.	8g	8gg	24g'
.	.	.	.	.	24dd'	.	.	.	.	.	.	.	.	.	24dd'
.	.	.	.	.	24g'	.	.	.	.	.	.	.	.	.	24g'
.	.	.	.	.	24f	4r	.	.	4ryy	4r	4ryy	4r	8a-	8ff	24f
.	.	.	.	.	24a-	.	.	.	.	.	.	.	.	.	24a-
.	.	.	.	.	24dd'	.	.	.	.	.	.	.	.	.	24dd'
.	.	.	.	.	24f	.	.	.	.	.	.	.	8g	8ff	24f
.	.	.	.	.	24g	.	.	.	.	.	.	.	.	.	24g
.	.	.	.	.	24dd'	.	.	.	.	.	.	.	.	.	24dd'
*	*	*	*	*	*	*	*	*	*	*	*clefC4	*clefC4	*	*	*
=29	=29	=29	=29	=29	=29	=29	=29	=29	=29	=29	=29	=29	=29	=29	=29
2.ryy	8c	8c	8c	24en	24en	4C	8ee	8gg	8c	8g	8en	8g	8g	8een	24en
.	.	.	.	24g	24g	.	.	.	.	.	.	.	.	.	24g
.	.	.	.	24cc'	24cc'	.	.	.	.	.	.	.	.	.	24cc'
.	8F	8F	8F	24a	24an	.	8dd	8ff	8f	8a	8d	8f	8an	24dd	24an
.	.	.	.	24f	24dd	.	.	.	.	.	.	.	.	24ff	24dd
.	.	.	.	24d'	24ff'	.	.	.	.	.	.	.	.	24aa	24ff'
.	4G	4G	4G	4c 4e	24g	4r	4cc	4ee	2g	2g	4c	4e	4e	4cc	24g
.	.	.	.	.	24cc	.	.	.	.	.	.	.	.	.	24cc
.	.	.	.	.	24ee	.	.	.	.	.	.	.	.	.	24ee
.	.	.	.	.	24gg'	.	.	.	.	.	.	.	.	.	24gg'
.	.	.	.	.	24gg'	.	.	.	.	.	.	.	.	.	24gg'
.	.	.	.	.	24gg'	.	.	.	.	.	.	.	.	.	24gg'
.	4GG	4GG	8..F	4Bn 4d	24gg	4r	4g	4dd	.	.	4Bn	4d	4f	4bn	24gg
.	.	.	.	.	24ff#	.	.	.	.	.	.	.	.	.	24ff#
.	.	.	.	.	24ffn	.	.	.	.	.	.	.	.	.	24ffn
.	.	.	.	.	24ee	.	.	.	.	.	.	.	.	.	24ee
.	.	.	.	.	24ff	.	.	.	.	.	.	.	.	.	24ff
.	.	.	.	.	24bn	.	.	.	.	.	.	.	.	.	24bn
.	.	.	32D	.	.	.	.	.	.	.	.	.	.	.	.
=30	=30	=30	=30	=30	=30	=30	=30	=30	=30	=30	=30	=30	=30	=30	=30
*	*staff:1	*staff:2	*staff:3	*staff:4	*staff:5	*staff:6	*staff:7	*staff:7	*staff:8	*staff:8	*staff:9	*staff:9	*staff:10	*staff:10	*staff:11
2.ryy	8C	24C	[2.C	2G 2e	8dd	4C	4e	4cc	4c	4g	4c	4c	4e	8dd	8dd
.	.	24E	.	.	.	.	.	.	.	.	.	.	.	.	.
.	.	24G	.	.	.	.	.	.	.	.	.	.	.	.	.
.	8r	24C	.	.	8cc	.	.	.	.	.	.	.	.	8cc	8cc
.	.	24E	.	.	.	.	.	.	.	.	.	.	.	.	.
.	.	24G	.	.	.	.	.	.	.	.	.	.	.	.	.
.	8C	24C	.	.	24r	4r	4ryy	4r	4ryy	4r	4ryy	4r	4ryy	4r	24r
.	.	24E	.	.	24eee'	.	.	.	.	.	.	.	.	.	24eee'
.	.	24G	.	.	24ddd'	.	.	.	.	.	.	.	.	.	24ddd'
.	8r	24C	.	.	24ccc'	.	.	.	.	.	.	.	.	.	24ccc'
.	.	24E	.	.	24bbn'	.	.	.	.	.	.	.	.	.	24bbn'
.	.	24G	.	.	24aa'	.	.	.	.	.	.	.	.	.	24aa'
*	*	*	*	*	*	*	*	*	*	*	*clefF4	*clefF4	*	*	*
.	8C	24C	.	4A- 4f	24gg	24C	4r	4dd	4ryy	4r	4r	8..Bn	4bn	4ff	24gg
.	.	24F	.	.	24ff	24C	.	.	.	.	.	.	.	.	24ff
.	.	24A-	.	.	24dd'	24C	.	.	.	.	.	.	.	.	24dd'
.	8r	24C	.	.	24ff	24C	.	.	.	.	.	.	.	.	24ff
.	.	24F	.	.	24dd	24C	.	.	.	.	.	.	.	.	24dd
.	.	24A-	.	.	24bn'	24C	.	.	.	.	.	.	.	.	24bn'
.	.	.	.	.	.	.	.	.	.	.	.	32d	.	.	.
=31	=31	=31	=31	=31	=31	=31	=31	=31	=31	=31	=31	=31	=31	=31	=31
2.ryy	8C	24C	2.C_	2G 2e	24bn	4C	[2.c	4cc	[2.C	2.c	2.r	4c	4cc	4ee	24bn
.	.	24E	.	.	24cc	.	.	.	.	.	.	.	.	.	24cc
.	.	24G	.	.	24ee'	.	.	.	.	.	.	.	.	.	24ee'
.	8r	24E	.	.	24gg	.	.	.	.	.	.	.	.	.	24gg
.	.	24C	.	.	24bbn	.	.	.	.	.	.	.	.	.	24bbn
.	.	24G	.	.	24ccc'	.	.	.	.	.	.	.	.	.	24ccc'
.	8C	24C	.	.	24eee'	4r	.	4r	.	.	.	4r	4ryy	4r	24eee'
.	.	24E	.	.	24ddd'	.	.	.	.	.	.	.	.	.	24ddd'
.	.	24G	.	.	24ccc'	.	.	.	.	.	.	.	.	.	24ccc'
.	8r	24C	.	.	24bb'	.	.	.	.	.	.	.	.	.	24bb'
.	.	24E	.	.	24aa'	.	.	.	.	.	.	.	.	.	24aa'
.	.	24G	.	.	24gg'	.	.	.	.	.	.	.	.	.	24gg'
.	8C	24C	.	4A- 4f	24ff	24C	.	4dd	.	.	.	8..Bn	4bn	4ff	24ff
.	.	24F	.	.	24dd	24C	.	.	.	.	.	.	.	.	24dd
.	.	24A-	.	.	24b'	24C	.	.	.	.	.	.	.	.	24b'
.	8r	24C	.	.	24aa-	24C	.	.	.	.	.	.	.	.	24aa-
.	.	24F	.	.	24ff	24C	.	.	.	.	.	.	.	.	24ff
.	.	24A-	.	.	24b'	24C	.	.	.	.	.	.	.	.	24b'
.	.	.	.	.	.	.	.	.	.	.	.	32d	.	.	.
=32	=32	=32	=32	=32	=32	=32	=32	=32	=32	=32	=32	=32	=32	=32	=32
2.ryy	4.C	4A-	4.C]	4f	4bn	4C	4c_	4dd	4C_	4c	2.r	4d	4bn	4ff	4bn
.	.	8G	.	8e	8cc	4r	8c]	8ee	8C]	8c	.	8c	8cc	8ee	8cc
.	8r	8r	8r	8r	8r	.	8ryy	8r	8ryy	8r	.	8r	8ryy	8r	8r
.	4r	4r	4r	4r	4r	4r	4ryy	4r	4ryy	4r	.	4r	4ryy	4r	4r
=33	=33	=33	=33	=33	=33	=33	=33	=33	=33	=33	=33	=33	=33	=33	=33
2.ryy	2A-	2A-	2e-	2c	8a-	2.r	2.r	2.r	2.r	2.r	2.r	2.r	2.r	2.r	2.r
.	.	.	.	.	32b-XQ	.	.	.	.	.	.	.	.	.	.
.	.	.	.	.	32a-Q	.	.	.	.	.	.	.	.	.	.
.	.	.	.	.	32gQ	.	.	.	.	.	.	.	.	.	.
.	.	.	.	.	16.a-	.	.	.	.	.	.	.	.	.	.
.	.	.	.	.	32cc	.	.	.	.	.	.	.	.	.	.
.	.	.	.	.	8..ee-	.	.	.	.	.	.	.	.	.	.
.	.	.	.	.	32cc	.	.	.	.	.	.	.	.	.	.
.	4A-z	4A-z	8..dnz	4c-z	8..ffz	.	.	.	.	.	.	.	.	.	.
.	.	.	32f	.	32ddn	.	.	.	.	.	.	.	.	.	.
=34	=34	=34	=34	=34	=34	=34	=34	=34	=34	=34	=34	=34	=34	=34	=34
*	*staff:10	*staff:11	*staff:12	*staff:13	*staff:14	*	*	*	*	*	*	*	*staff:15	*staff:15	*staff:16
2.ryy	2G	2G	2.e-	[4B-	24ee-	2.ryy	2.ryy	2.ryy	2.ryy	2.ryy	2.ryy	2.ryy	2.r	2.r	2.r
.	.	.	.	.	32ffQ	.	.	.	.	.	.	.	.	.	.
.	.	.	.	.	32ee-Q	.	.	.	.	.	.	.	.	.	.
.	.	.	.	.	32ddQ	.	.	.	.	.	.	.	.	.	.
.	.	.	.	.	24ee-	.	.	.	.	.	.	.	.	.	.
.	.	.	.	.	24gg	.	.	.	.	.	.	.	.	.	.
.	.	.	.	.	24bb-^	.	.	.	.	.	.	.	.	.	.
.	.	.	.	.	24gg	.	.	.	.	.	.	.	.	.	.
.	.	.	.	.	24ee-	.	.	.	.	.	.	.	.	.	.
.	.	.	.	24B-]	4dd-	.	.	.	.	.	.	.	.	.	.
.	.	.	.	24B-	.	.	.	.	.	.	.	.	.	.	.
.	.	.	.	24d-	.	.	.	.	.	.	.	.	.	.	.
.	.	.	.	24f^	.	.	.	.	.	.	.	.	.	.	.
.	.	.	.	24d-	.	.	.	.	.	.	.	.	.	.	.
.	.	.	.	24B-	.	.	.	.	.	.	.	.	.	.	.
.	4A-	4A-	.	24A-	4cc	.	.	.	.	.	.	.	.	.	.
.	.	.	.	24cn	.	.	.	.	.	.	.	.	.	.	.
.	.	.	.	24f^	.	.	.	.	.	.	.	.	.	.	.
.	.	.	.	24e-	.	.	.	.	.	.	.	.	.	.	.
.	.	.	.	24c	.	.	.	.	.	.	.	.	.	.	.
.	.	.	.	24A-	.	.	.	.	.	.	.	.	.	.	.
=35	=35	=35	=35	=35	=35	=35	=35	=35	=35	=35	=35	=35	=35	=35	=35
2.ryy	4D-	4D-	4f	4f	24b-	2.ryy	2.ryy	2.ryy	2.ryy	2.ryy	2.ryy	2.ryy	2.r	2.r	2.r
.	.	.	.	.	32ccQ	.	.	.	.	.	.	.	.	.	.
.	.	.	.	.	32b-Q	.	.	.	.	.	.	.	.	.	.
.	.	.	.	.	32anQ	.	.	.	.	.	.	.	.	.	.
.	.	.	.	.	24b-	.	.	.	.	.	.	.	.	.	.
.	.	.	.	.	24gg-^	.	.	.	.	.	.	.	.	.	.
.	.	.	.	.	24ff	.	.	.	.	.	.	.	.	.	.
.	.	.	.	.	24dd-	.	.	.	.	.	.	.	.	.	.
.	.	.	.	.	24b-	.	.	.	.	.	.	.	.	.	.
.	4E-	4E-	4a-	4c	24a-	.	.	.	.	.	.	.	.	.	.
.	.	.	.	.	24e-	.	.	.	.	.	.	.	.	.	.
.	.	.	.	.	24cc	.	.	.	.	.	.	.	.	.	.
.	.	.	.	.	[8ee-X	.	.	.	.	.	.	.	.	.	.
.	4EE-X	4E-	4g	8..d-	24ee-]	.	.	.	.	.	.	.	.	.	.
.	.	.	.	.	24dd-	.	.	.	.	.	.	.	.	.	.
.	.	.	.	.	24ff	.	.	.	.	.	.	.	.	.	.
.	.	.	.	.	24dd-	.	.	.	.	.	.	.	.	.	.
.	.	.	.	.	24b-	.	.	.	.	.	.	.	.	.	.
.	.	.	.	.	24gn	.	.	.	.	.	.	.	.	.	.
.	.	.	.	32B-	.	.	.	.	.	.	.	.	.	.	.
=36	=36	=36	=36	=36	=36	=36	=36	=36	=36	=36	=36	=36	=36	=36	=36
2.ryy	8AA-	2.A-	2.c 2.e-	24A-	8b-	2.ryy	2.ryy	2.ryy	2.ryy	2.ryy	2.ryy	2.ryy	[2.ee-	2.aa-	2.ccc
.	.	.	.	24c	.	.	.	.	.	.	.	.	.	.	.
.	.	.	.	24e-	.	.	.	.	.	.	.	.	.	.	.
.	8r	.	.	24A-	8a-	.	.	.	.	.	.	.	.	.	.
.	.	.	.	24c	.	.	.	.	.	.	.	.	.	.	.
.	.	.	.	24e-	.	.	.	.	.	.	.	.	.	.	.
.	8AA-	.	.	24A-	24r	.	.	.	.	.	.	.	.	.	.
.	.	.	.	24c	24eee-'	.	.	.	.	.	.	.	.	.	.
.	.	.	.	24e-	24ddd-'	.	.	.	.	.	.	.	.	.	.
.	8r	.	.	24A-	24ccc'	.	.	.	.	.	.	.	.	.	.
.	.	.	.	24c	24bb-'	.	.	.	.	.	.	.	.	.	.
.	.	.	.	24e-	24aa-X'	.	.	.	.	.	.	.	.	.	.
.	8AA-	.	.	24A-	24gg'	.	.	.	.	.	.	.	.	.	.
.	.	.	.	24c	24ff'	.	.	.	.	.	.	.	.	.	.
.	.	.	.	24e-	24ee-X'	.	.	.	.	.	.	.	.	.	.
.	8r	.	.	24A-	24dd-X'	.	.	.	.	.	.	.	.	.	.
.	.	.	.	24c	24cc'	.	.	.	.	.	.	.	.	.	.
.	.	.	.	24e-	24b-'	.	.	.	.	.	.	.	.	.	.
=37	=37	=37	=37	=37	=37	=37	=37	=37	=37	=37	=37	=37	=37	=37	=37
*	*staff:1	*staff:2	*staff:3	*staff:4	*staff:5	*	*staff:6	*staff:6	*	*	*staff:7	*staff:7	*staff:8	*staff:8	*staff:9
2.ryy	8BB-	2B-	2G 2e-	24B-	8a-	2.ryy	2.r	2.r	2.ryy	2.ryy	2.r	2.r	2ee-]	8aa-	2.ddd-
.	.	.	.	24d-	.	.	.	.	.	.	.	.	.	.	.
.	.	.	.	24e-	.	.	.	.	.	.	.	.	.	.	.
.	8r	.	.	24B-	8g	.	.	.	.	.	.	.	.	8gg	.
.	.	.	.	24d-	.	.	.	.	.	.	.	.	.	.	.
.	.	.	.	24e-	.	.	.	.	.	.	.	.	.	.	.
.	8BB-	.	.	24B-	24r	.	.	.	.	.	.	.	.	[2gg	.
.	.	.	.	24d-	24eee-'	.	.	.	.	.	.	.	.	.	.
.	.	.	.	24g	24ddd-'	.	.	.	.	.	.	.	.	.	.
.	8r	.	.	24b-	24ccc'	.	.	.	.	.	.	.	.	.	.
.	.	.	.	24dd-X	24bb-'	.	.	.	.	.	.	.	.	.	.
.	.	.	.	24cc	24aa-X'	.	.	.	.	.	.	.	.	.	.
.	8BB-	4G	4en	24b-	24gg	.	.	.	.	.	.	.	[4een	.	.
.	.	.	.	24a-	24ff	.	.	.	.	.	.	.	.	.	.
.	.	.	.	24g'	24een'	.	.	.	.	.	.	.	.	.	.
.	8r	.	.	24g'	24ee'	.	.	.	.	.	.	.	.	.	.
.	.	.	.	24g'	24ee'	.	.	.	.	.	.	.	.	.	.
.	.	.	.	24g'	24ee'	.	.	.	.	.	.	.	.	.	.
*	*	*	*	*	*	*	*	*	*	*	*clefC4	*clefC4	*	*	*
=38	=38	=38	=38	=38	=38	=38	=38	=38	=38	=38	=38	=38	=38	=38	=38
2.ryy	2AAnz	4C#	4c#	24An'	4eez	2.ryy	2.r	2.r	2.ryy	2.ryy	4c#	4enz	4ee]	4ggz]	4ccc#
.	.	.	.	24c#'	.	.	.	.	.	.	.	.	.	.	.
.	.	.	.	24en'	.	.	.	.	.	.	.	.	.	.	.
.	.	.	.	24g'	.	.	.	.	.	.	.	.	.	.	.
.	.	.	.	24e'	.	.	.	.	.	.	.	.	.	.	.
.	.	.	.	24c#'	.	.	.	.	.	.	.	.	.	.	.
.	.	4AAn	4d	24A	8ff	.	.	.	.	.	4d	4f	4dd	4ff	4dddn
.	.	.	.	24dn	.	.	.	.	.	.	.	.	.	.	.
.	.	.	.	24f	.	.	.	.	.	.	.	.	.	.	.
.	.	.	.	24A	8r	.	.	.	.	.	.	.	.	.	.
.	.	.	.	24d	.	.	.	.	.	.	.	.	.	.	.
.	.	.	.	24f	.	.	.	.	.	.	.	.	.	.	.
.	4AA-	4AA-	4d	24A-	24r	.	.	.	.	.	4d	4f	4dd	4ff	4cccn
.	.	.	.	24d	24ff'	.	.	.	.	.	.	.	.	.	.
.	.	.	.	24f	24ff'	.	.	.	.	.	.	.	.	.	.
.	.	.	.	24A-	24ff	.	.	.	.	.	.	.	.	.	.
.	.	.	.	24d	24ccc	.	.	.	.	.	.	.	.	.	.
.	.	.	.	24f	24ccc'	.	.	.	.	.	.	.	.	.	.
=39	=39	=39	=39	=39	=39	=39	=39	=39	=39	=39	=39	=39	=39	=39	=39
2.ryy	2.GG	2.GG	2.Bn	24G	24ccc	2.ryy	2.g	2.dd	2.ryy	2.ryy	2.Bn	2.f	2.dd	2.ff	2.bbn
.	.	.	.	24d	24bbn	.	.	.	.	.	.	.	.	.	.
.	.	.	.	24f	24ddd	.	.	.	.	.	.	.	.	.	.
.	.	.	.	24G	[8aa-	.	.	.	.	.	.	.	.	.	.
.	.	.	.	24d	.	.	.	.	.	.	.	.	.	.	.
.	.	.	.	24f	.	.	.	.	.	.	.	.	.	.	.
.	.	.	.	24G	24aa-]	.	.	.	.	.	.	.	.	.	.
.	.	.	.	24d	24gg'	.	.	.	.	.	.	.	.	.	.
.	.	.	.	24f	24ff'	.	.	.	.	.	.	.	.	.	.
.	.	.	.	24G	24ee-'	.	.	.	.	.	.	.	.	.	.
.	.	.	.	24d	24dd'	.	.	.	.	.	.	.	.	.	.
.	.	.	.	24f	24cc'	.	.	.	.	.	.	.	.	.	.
.	.	.	.	24G	24cc	.	.	.	.	.	.	.	.	.	.
.	.	.	.	24d	24bn	.	.	.	.	.	.	.	.	.	.
.	.	.	.	24f	24dd'	.	.	.	.	.	.	.	.	.	.
.	.	.	.	24G	24ff	.	.	.	.	.	.	.	.	.	.
.	.	.	.	24d	24aa-	.	.	.	.	.	.	.	.	.	.
.	.	.	.	24f	24b'	.	.	.	.	.	.	.	.	.	.
=40	=40	=40	=40	=40	=40	=40	=40	=40	=40	=40	=40	=40	=40	=40	=40
*	*staff:12	*staff:13	*staff:14	*staff:15	*staff:16	*staff:17	*staff:18	*staff:18	*staff:19	*staff:19	*staff:20	*staff:20	*staff:21	*staff:21	*staff:22
2.ryy	8GG	[2.G	2.c	24G	24dd	2.r	2.G	2.cc	2.r	2.r	2.c	2.e-	2.cc	2.ee-	2.ccc
.	.	.	.	24c	24cc	.	.	.	.	.	.	.	.	.	.
.	.	.	.	24e-	24cc'	.	.	.	.	.	.	.	.	.	.
.	8r	.	.	24G	8cc	.	.	.	.	.	.	.	.	.	.
.	.	.	.	24c	.	.	.	.	.	.	.	.	.	.	.
.	.	.	.	24e-	.	.	.	.	.	.	.	.	.	.	.
.	8GG	.	.	24G	24r	.	.	.	.	.	.	.	.	.	.
.	.	.	.	24c	24gg'	.	.	.	.	.	.	.	.	.	.
.	.	.	.	24e-	24ff'	.	.	.	.	.	.	.	.	.	.
.	8r	.	.	24G	24ee-'	.	.	.	.	.	.	.	.	.	.
.	.	.	.	24c	24dd'	.	.	.	.	.	.	.	.	.	.
.	.	.	.	24e-	24cc'	.	.	.	.	.	.	.	.	.	.
.	8GG	.	.	24G	24ccc'	.	.	.	.	.	.	.	.	.	.
.	.	.	.	24c	24gg'	.	.	.	.	.	.	.	.	.	.
.	.	.	.	24e-	24ff'	.	.	.	.	.	.	.	.	.	.
.	8r	.	.	24G	24ee-'	.	.	.	.	.	.	.	.	.	.
.	.	.	.	24c	24dd'	.	.	.	.	.	.	.	.	.	.
.	.	.	.	24e-	24cc'	.	.	.	.	.	.	.	.	.	.
=41	=41	=41	=41	=41	=41	=41	=41	=41	=41	=41	=41	=41	=41	=41	=41
2.ryy	8G	2.G]	2.d-	24G	24cc	2.r	2.G	2.ee	2.r	2.r	2.B-X	2.en	2dd-	2.een	2.bb-X
.	.	.	.	24d-	24b-X	.	.	.	.	.	.	.	.	.	.
.	.	.	.	24en	24b-'	.	.	.	.	.	.	.	.	.	.
.	8r	.	.	24G	[8b-	.	.	.	.	.	.	.	.	.	.
.	.	.	.	24d-	.	.	.	.	.	.	.	.	.	.	.
.	.	.	.	24e	.	.	.	.	.	.	.	.	.	.	.
.	8G	.	.	24G	24b-]	.	.	.	.	.	.	.	.	.	.
.	.	.	.	24B-	24dd-'	.	.	.	.	.	.	.	.	.	.
.	.	.	.	24d-	24cc'	.	.	.	.	.	.	.	.	.	.
.	8r	.	.	24G	24b-'	.	.	.	.	.	.	.	.	.	.
.	.	.	.	24B-	24a-'	.	.	.	.	.	.	.	.	.	.
.	.	.	.	24d-	24g'	.	.	.	.	.	.	.	.	.	.
.	8G	.	.	24G	24f	.	.	.	.	.	.	.	4cc	.	.
.	.	.	.	24B-	24en	.	.	.	.	.	.	.	.	.	.
.	.	.	.	24c	24e'	.	.	.	.	.	.	.	.	.	.
.	8r	.	.	24G	24e'	.	.	.	.	.	.	.	.	.	.
.	.	.	.	24B-	24e'	.	.	.	.	.	.	.	.	.	.
.	.	.	.	24c	24e'	.	.	.	.	.	.	.	.	.	.
=42	=42	=42	=42	=42	=42	=42	=42	=42	=42	=42	=42	=42	=42	=42	=42
2.ryy	8G	8G	8c	24G	24b-	4r	8G	8ee	2ryy	4r	8B-	8e	8b-	8ee	8bb-
.	.	.	.	24B-	24e	.	.	.	.	.	.	.	.	.	.
.	.	.	.	24c	24e'	.	.	.	.	.	.	.	.	.	.
.	8r	8r	8ryy	24G	24e'	.	8ryy	8r	.	.	8ryy	8r	8ryy	8r	8r
.	.	.	.	24B-	24e'	.	.	.	.	.	.	.	.	.	.
.	.	.	.	24c	24e'	.	.	.	.	.	.	.	.	.	.
.	8G	8G	8c	24G	24dd-	4r	4ryy	4r	.	4r	8B-	8e	8b-	8ee	8bb-
.	.	.	.	24B-	24e	.	.	.	.	.	.	.	.	.	.
.	.	.	.	24c	24e'	.	.	.	.	.	.	.	.	.	.
.	8r	8r	8ryy	24G	24e'	.	.	.	.	.	8ryy	8r	8ryy	8r	8r
.	.	.	.	24B-	24e'	.	.	.	.	.	.	.	.	.	.
.	.	.	.	24c	24e'	.	.	.	.	.	.	.	.	.	.
.	24En	24En	24e	24G	24ddd-X	24C	24c	24g	24c	24g	24B-	24g	24gg	24bb-	24ddd-
.	24E	24E	24cc	24g 24b-	24ccc	24C	24c	24cc	24c	24g	24B-	24g	24gg	24bb-	24ccc
.	24E	24E	24cc	24g 24b-	24ccc	24C	24c	24cc	24c	24g	24B-	24g	24gg	24bb-	24ccc
.	24E	24E	24cc	24g 24b-	24ccc	24C	24c	24cc	24c	24g	24B-	24g	24gg	24bb-	24ccc
.	24E	24E	24cc	24g 24b-	24ccc	24C	24c	24cc	24c	24g	24B-	24g	24gg	24bb-	24ccc
.	24E	24E	24cc	24g 24b-	24ccc	24C	24c	24cc	24c	24g	24B-	24g	24gg	24bb-	24ccc
=43	=43	=43	=43	=43	=43	=43	=43	=43	=43	=43	=43	=43	=43	=43	=43
2.ryy	8E	8E	8cc	8g 8b-	8ccc	8C	8c	8cc	8c	8g	8B-	8g	8gg	8bb-	8ccc
.	8r	8r	8r	8r	8r	8r	8ryy	8r	8ryy	8r	8ryy	8r	8ryy	8r	8r
.	4r	24e	24g	24b-	24dd-	4r	4ryy	4r	4ryy	4r	4ryy	4r	4ryy	4r	4r
.	.	24e	24g	24b-	24cc	.	.	.	.	.	.	.	.	.	.
.	.	24e	24g	24b-	24cc	.	.	.	.	.	.	.	.	.	.
.	.	24e	24g	24b-	24cc	.	.	.	.	.	.	.	.	.	.
.	.	24e	24g	24b-	24cc	.	.	.	.	.	.	.	.	.	.
.	.	24e	24g	24b-	24cc	.	.	.	.	.	.	.	.	.	.
.	4r	8e	8g	8b-	8cc	4r	4ryy	4r	4ryy	4r	4ryy	4r	4ryy	4r	4r
.	.	8r	8r	8r	8r	.	.	.	.	.	.	.	.	.	.
=44	=44	=44	=44	=44	=44	=44	=44	=44	=44	=44	=44	=44	=44	=44	=44
*	*staff:1	*staff:2	*staff:3	*staff:4	*staff:5	*staff:6	*staff:7	*staff:7	*staff:8	*staff:8	*staff:9	*staff:9	*staff:10	*staff:10	*staff:11
2.ryy	2.r	8r	4r	8r	24d-	2.r	2.r	2.r	2.r	2.r	2.r	2.r	2.r	2.r	2.r
.	.	.	.	.	24c	.	.	.	.	.	.	.	.	.	.
.	.	.	.	.	24c	.	.	.	.	.	.	.	.	.	.
.	.	24c	.	24c	24c	.	.	.	.	.	.	.	.	.	.
.	.	24c	.	24c	24c	.	.	.	.	.	.	.	.	.	.
.	.	24c	.	24c	24c	.	.	.	.	.	.	.	.	.	.
.	.	24B-X	8r	24c	24d-	.	.	.	.	.	.	.	.	.	.
.	.	24B-	.	24c	24d-	.	.	.	.	.	.	.	.	.	.
.	.	24B-	.	24c	24d-	.	.	.	.	.	.	.	.	.	.
.	.	24An	24c	24c	24dn	.	.	.	.	.	.	.	.	.	.
.	.	24A	24c	24c	24d	.	.	.	.	.	.	.	.	.	.
.	.	24A	24c	24c	24d	.	.	.	.	.	.	.	.	.	.
.	.	24A-	24c	24c	24e-	.	.	.	.	.	.	.	.	.	.
.	.	24A-	24c	24c	24e-	.	.	.	.	.	.	.	.	.	.
.	.	24A-	24c	24c	24e-	.	.	.	.	.	.	.	.	.	.
.	.	24G	24c	24B-	24en	.	.	.	.	.	.	.	.	.	.
.	.	24G	24c	24B-	24e	.	.	.	.	.	.	.	.	.	.
.	.	24G	24c	24B-	24e	.	.	.	.	.	.	.	.	.	.
*	*	*	*	*	*	*	*	*	*	*	*clefF4	*clefF4	*	*	*
=45	=45	=45	=45	=45	=45	=45	=45	=45	=45	=45	=45	=45	=45	=45	=45
2.ryy	2F	24F	2c	2A	8f	4FF	2c	2cc	2A	2f	2A	4f	2a	2ff	8ff
.	.	24An	.	.	.	.	.	.	.	.	.	.	.	.	.
.	.	24c	.	.	.	.	.	.	.	.	.	.	.	.	.
.	.	.	.	.	32gQ	.	.	.	.	.	.	.	.	.	32ggQ
.	.	.	.	.	32fQ	.	.	.	.	.	.	.	.	.	32ffQ
.	.	.	.	.	32eQ	.	.	.	.	.	.	.	.	.	32eeQ
.	.	24F	.	.	16.f	.	.	.	.	.	.	.	.	.	16.ff
.	.	24A	.	.	.	.	.	.	.	.	.	.	.	.	.
.	.	24c	.	.	.	.	.	.	.	.	.	.	.	.	.
.	.	.	.	.	32an	.	.	.	.	.	.	.	.	.	32aa
.	.	24F	.	.	8..cc	4r	.	.	.	.	.	4c	.	.	8..ccc
.	.	24A	.	.	.	.	.	.	.	.	.	.	.	.	.
.	.	24c	.	.	.	.	.	.	.	.	.	.	.	.	.
.	.	24F	.	.	.	.	.	.	.	.	.	.	.	.	.
.	.	24A	.	.	.	.	.	.	.	.	.	.	.	.	.
.	.	24c	.	.	.	.	.	.	.	.	.	.	.	.	.
.	.	.	.	.	32a	.	.	.	.	.	.	.	.	.	32aa
.	4Fz	24Fz	8..Bnz	4A-z	8..ddz	4FFz	4r	4ddz	4F	4fz	4A-	4Bnz	4a-	4bnz	8..dddz
.	.	24A-	.	.	.	.	.	.	.	.	.	.	.	.	.
.	.	24Bn	.	.	.	.	.	.	.	.	.	.	.	.	.
.	.	24F	.	.	.	.	.	.	.	.	.	.	.	.	.
.	.	24A-	.	.	.	.	.	.	.	.	.	.	.	.	.
.	.	24B	.	.	.	.	.	.	.	.	.	.	.	.	.
.	.	.	32d	.	32bn	.	.	.	.	.	.	.	.	.	32bbn
=46	=46	=46	=46	=46	=46	=46	=46	=46	=46	=46	=46	=46	=46	=46	=46
2.ryy	2E	[4En	4c	8..G	24cc	4C	2.c	2.cc	2c	2g	2G	4c	4g	[2cc	24ccc
.	.	.	.	.	32ddQ	.	.	.	.	.	.	.	.	.	32dddQ
.	.	.	.	.	32ccQ	.	.	.	.	.	.	.	.	.	32cccQ
.	.	.	.	.	32bnQ	.	.	.	.	.	.	.	.	.	32bbnQ
.	.	.	.	.	24cc	.	.	.	.	.	.	.	.	.	24ccc
.	.	.	.	.	24ee	.	.	.	.	.	.	.	.	.	24eee
.	.	.	.	.	24gg^	.	.	.	.	.	.	.	.	.	24ggg^
.	.	.	.	.	24ee	.	.	.	.	.	.	.	.	.	24eee
.	.	.	.	.	24cc	.	.	.	.	.	.	.	.	.	24ccc
.	.	.	.	32c	.	.	.	.	.	.	.	.	.	.	.
.	.	24E]	4G	2c	4b-	4r	.	.	.	.	.	4B-X	4b-X	.	4bb-
.	.	24G	.	.	.	.	.	.	.	.	.	.	.	.	.
.	.	24B-X	.	.	.	.	.	.	.	.	.	.	.	.	.
.	.	24d^	.	.	.	.	.	.	.	.	.	.	.	.	.
.	.	24B-	.	.	.	.	.	.	.	.	.	.	.	.	.
.	.	24G	.	.	.	.	.	.	.	.	.	.	.	.	.
.	4F	24F	4A	.	4a	4r	.	.	4f	4a	4F	4An	4an	8..cc]	4aa
.	.	24An	.	.	.	.	.	.	.	.	.	.	.	.	.
.	.	24d^	.	.	.	.	.	.	.	.	.	.	.	.	.
.	.	24c	.	.	.	.	.	.	.	.	.	.	.	.	.
.	.	24A	.	.	.	.	.	.	.	.	.	.	.	.	.
.	.	24F	.	.	.	.	.	.	.	.	.	.	.	.	.
.	.	.	.	.	.	.	.	.	.	.	.	.	.	32cc#	.
=47	=47	=47	=47	=47	=47	=47	=47	=47	=47	=47	=47	=47	=47	=47	=47
*	*staff:12	*staff:13	*staff:14	*staff:15	*staff:16	*staff:17	*staff:18	*staff:18	*staff:19	*staff:19	*staff:20	*staff:20	*staff:21	*staff:21	*staff:22
2.ryy	4BB-	4B-	4d	4d	24g	4r	4ryy	4r	4ryy	4r	4B-	4d	8..g	8..dd	24gg
.	.	.	.	.	32aQ	.	.	.	.	.	.	.	.	.	32aaQ
.	.	.	.	.	32gQ	.	.	.	.	.	.	.	.	.	32ggQ
.	.	.	.	.	32f#Q	.	.	.	.	.	.	.	.	.	32ff#Q
.	.	.	.	.	24g	.	.	.	.	.	.	.	.	.	24gg
.	.	.	.	.	24ee-^	.	.	.	.	.	.	.	.	.	24eee-^
.	.	.	.	.	24dd	.	.	.	.	.	.	.	.	.	24ddd
.	.	.	.	.	24b-	.	.	.	.	.	.	.	.	.	24bb-
.	.	.	.	.	24g	.	.	.	.	.	.	.	.	.	24gg
.	.	.	.	.	.	.	.	.	.	.	.	.	32b-	32gg	.
.	4C	4c	4c	4An	24fn	4C	4c	4cc	4A	4f	4c	4c	4a	4ff	24ffn
.	.	.	.	.	24c	.	.	.	.	.	.	.	.	.	24cc
.	.	.	.	.	24f	.	.	.	.	.	.	.	.	.	24ff
.	.	.	.	.	[8cc^	.	.	.	.	.	.	.	.	.	[8ccc^
.	4C	4C	4E	4B-	24cc]	24C	4c	4cc	4c	4g	4B-	4e	4g	4ee	24ccc]
.	.	.	.	.	24b-	24C	.	.	.	.	.	.	.	.	24bb-
.	.	.	.	.	24dd	24C	.	.	.	.	.	.	.	.	24ddd
.	.	.	.	.	24b-	24C	.	.	.	.	.	.	.	.	24bb-
.	.	.	.	.	24g	24C	.	.	.	.	.	.	.	.	24gg
.	.	.	.	.	24en	24C	.	.	.	.	.	.	.	.	24een
=48	=48	=48	=48	=48	=48	=48	=48	=48	=48	=48	=48	=48	=48	=48	=48
2.ryy	4.FF	4FF	4E	4B-	4g	4FF	4c	4cc	4c	4g	4B-	4e	4b-	4ee	4gg
.	.	8r	8F	8A	8f	8r	4ryy	4r	8f	8a	8A	8f	8a	8ff	8ff
.	8FF	24A	8f'	8f'	8r	8FF	.	.	8ryy	8r	8A	8A	8a	4ff	8r
.	.	24F	.	.	.	.	.	.	.	.	.	.	.	.	.
.	.	24A	.	.	.	.	.	.	.	.	.	.	.	.	.
.	8GG	24B-	8f'	8f'	4r	8FF	4ryy	4r	4ryy	4r	8B-	8B-	8b-	.	4r
.	.	24F	.	.	.	.	.	.	.	.	.	.	.	.	.
.	.	24B-	.	.	.	.	.	.	.	.	.	.	.	.	.
.	8AA	24c	8f'	8f'	.	8FF	.	.	.	.	8c	8c	8cc	8ee-	.
.	.	24F	.	.	.	.	.	.	.	.	.	.	.	.	.
.	.	24c	.	.	.	.	.	.	.	.	.	.	.	.	.
=49	=49	=49	=49	=49	=49	=49	=49	=49	=49	=49	=49	=49	=49	=49	=49
2.ryy	2BB-	24d	2B-	2f	2dd	4FF	2.r	2.r	2f	2f	2d	2d	2f	2dd	2ddd
.	.	24B-	.	.	.	.	.	.	.	.	.	.	.	.	.
.	.	24F	.	.	.	.	.	.	.	.	.	.	.	.	.
.	.	24d	.	.	.	.	.	.	.	.	.	.	.	.	.
.	.	24B-	.	.	.	.	.	.	.	.	.	.	.	.	.
.	.	24F	.	.	.	.	.	.	.	.	.	.	.	.	.
.	.	24d	.	.	.	4r	.	.	.	.	.	.	.	.	.
.	.	24B-	.	.	.	.	.	.	.	.	.	.	.	.	.
.	.	24F	.	.	.	.	.	.	.	.	.	.	.	.	.
.	.	24d	.	.	.	.	.	.	.	.	.	.	.	.	.
.	.	24B-	.	.	.	.	.	.	.	.	.	.	.	.	.
.	.	24F	.	.	.	.	.	.	.	.	.	.	.	.	.
.	4AA	24e-	4c	8..f#	8..ee-	4r	.	.	4c	4c	4c	4c	8..f#	[8..ee-	8..eee-
.	.	24c	.	.	.	.	.	.	.	.	.	.	.	.	.
.	.	24F#	.	.	.	.	.	.	.	.	.	.	.	.	.
.	.	24e-	.	.	.	.	.	.	.	.	.	.	.	.	.
.	.	24c	.	.	.	.	.	.	.	.	.	.	.	.	.
.	.	24F#	.	.	.	.	.	.	.	.	.	.	.	.	.
.	.	.	.	32c	32een	.	.	.	.	.	.	.	32cc	32een]	32eeen
=50	=50	=50	=50	=50	=50	=50	=50	=50	=50	=50	=50	=50	=50	=50	=50
2.ryy	4AA-	24dz	2d	4Bn	4ffz	2.r	2.r	2.r	4f	4fz	2d	2dz	2bn	2ff	4fffz
.	.	24Bn	.	.	.	.	.	.	.	.	.	.	.	.	.
.	.	24Fn	.	.	.	.	.	.	.	.	.	.	.	.	.
.	.	24d	.	.	.	.	.	.	.	.	.	.	.	.	.
.	.	24B	.	.	.	.	.	.	.	.	.	.	.	.	.
.	.	24F	.	.	.	.	.	.	.	.	.	.	.	.	.
.	4GG	24d	.	4fn	4bn	.	.	.	4g	4g	.	.	.	.	4bbn
.	.	24B	.	.	.	.	.	.	.	.	.	.	.	.	.
.	.	24F	.	.	.	.	.	.	.	.	.	.	.	.	.
.	.	24d	.	.	.	.	.	.	.	.	.	.	.	.	.
.	.	24B	.	.	.	.	.	.	.	.	.	.	.	.	.
.	.	24F	.	.	.	.	.	.	.	.	.	.	.	.	.
.	4C	24c	[4G	4e	4cc	.	.	.	4g	4g	4G	4G	4cc	4ee	4ccc
.	.	24G	.	.	.	.	.	.	.	.	.	.	.	.	.
.	.	24En	.	.	.	.	.	.	.	.	.	.	.	.	.
.	.	24c	.	.	.	.	.	.	.	.	.	.	.	.	.
.	.	24G	.	.	.	.	.	.	.	.	.	.	.	.	.
.	.	24E	.	.	.	.	.	.	.	.	.	.	.	.	.
=51	=51	=51	=51	=51	=51	=51	=51	=51	=51	=51	=51	=51	=51	=51	=51
*	*staff:1	*staff:2	*staff:3	*staff:4	*staff:5	*staff:6	*staff:7	*staff:7	*staff:8	*staff:8	*staff:9	*staff:9	*staff:10	*staff:10	*staff:11
2.ryy	4EE	24c	4G]	4c	4gg	24C	2.c	2.cc	2c	2g	4G	4G	2.cc	2b-X	4ggg
.	.	24B-X	.	.	.	24C	.	.	.	.	.	.	.	.	.
.	.	24G	.	.	.	24C	.	.	.	.	.	.	.	.	.
.	.	24c	.	.	.	24C	.	.	.	.	.	.	.	.	.
.	.	24B-	.	.	.	24C	.	.	.	.	.	.	.	.	.
.	.	24G	.	.	.	24C	.	.	.	.	.	.	.	.	.
.	4E	24c	4c	4g	4b-X	24C	.	.	.	.	4e	4e	.	.	4bb-X
.	.	24B-	.	.	.	24C	.	.	.	.	.	.	.	.	.
.	.	24G	.	.	.	24C	.	.	.	.	.	.	.	.	.
.	.	24c	.	.	.	24C	.	.	.	.	.	.	.	.	.
.	.	24B-	.	.	.	24C	.	.	.	.	.	.	.	.	.
.	.	24G	.	.	.	24C	.	.	.	.	.	.	.	.	.
.	4F	24c	4c	4f	4a	8FF	.	.	4f	4a	4f	4f	.	4a	4aa
.	.	24A	.	.	.	.	.	.	.	.	.	.	.	.	.
.	.	24F	.	.	.	.	.	.	.	.	.	.	.	.	.
.	.	24c	.	.	.	8r	.	.	.	.	.	.	.	.	.
.	.	24A	.	.	.	.	.	.	.	.	.	.	.	.	.
.	.	24F	.	.	.	.	.	.	.	.	.	.	.	.	.
=52	=52	=52	=52	=52	=52	=52	=52	=52	=52	=52	=52	=52	=52	=52	=52
2.ryy	2BB-	24d	2c	2G 2e	8.g	4r	4e	4g	4ryy	4r	2.c	2.c	2e	2g	8.gg
.	.	24B-	.	.	.	.	.	.	.	.	.	.	.	.	.
.	.	24G	.	.	.	.	.	.	.	.	.	.	.	.	.
.	.	24E	.	.	.	.	.	.	.	.	.	.	.	.	.
.	.	24G	.	.	.	.	.	.	.	.	.	.	.	.	.
.	.	.	.	.	32aQ	.	.	.	.	.	.	.	.	.	32aaQ
.	.	.	.	.	32gQ	.	.	.	.	.	.	.	.	.	32ggQ
.	.	.	.	.	32f#Q	.	.	.	.	.	.	.	.	.	32ff#Q
.	.	.	.	.	16g	.	.	.	.	.	.	.	.	.	16gg
.	.	24B-	.	.	.	.	.	.	.	.	.	.	.	.	.
.	.	24G	.	.	4dd	4C	4c	4cc	4c	4g	.	.	.	.	4ddd
.	.	24E	.	.	.	.	.	.	.	.	.	.	.	.	.
.	.	24G	.	.	.	.	.	.	.	.	.	.	.	.	.
.	.	24B-	.	.	.	.	.	.	.	.	.	.	.	.	.
.	.	24d	.	.	.	.	.	.	.	.	.	.	.	.	.
.	.	24E	.	.	.	.	.	.	.	.	.	.	.	.	.
.	4AA	24F	4F	4A 4f	8..cc	4FF	4c	4cc	4f	4a	.	.	4f	8..a	8..ccc
.	.	24A	.	.	.	.	.	.	.	.	.	.	.	.	.
.	.	24c	.	.	.	.	.	.	.	.	.	.	.	.	.
.	.	24f	.	.	.	.	.	.	.	.	.	.	.	.	.
.	.	24c	.	.	.	.	.	.	.	.	.	.	.	.	.
.	.	24A	.	.	.	.	.	.	.	.	.	.	.	.	.
.	.	.	.	.	32ffn	.	.	.	.	.	.	.	.	32ff	32fffn
=53	=53	=53	=53	=53	=53	=53	=53	=53	=53	=53	=53	=53	=53	=53	=53
2.ryy	4BB-	24F	4B-	8..d	24ff^	4r	4ryy	4r	4ryy	4r	4B-	4B-	8..f	8..dd	24fff^
.	.	24B-	.	.	24dd	.	.	.	.	.	.	.	.	.	24ddd
.	.	24d	.	.	24b-'	.	.	.	.	.	.	.	.	.	24bb-'
.	.	24G	.	.	24dd	.	.	.	.	.	.	.	.	.	24ddd
.	.	24B-	.	.	24b-	.	.	.	.	.	.	.	.	.	24bb-
.	.	24d	.	.	24g'	.	.	.	.	.	.	.	.	.	24gg'
.	.	.	.	32B-	.	.	.	.	.	.	.	.	32b-	32gg	.
.	4C	24A	4c	4A	8.f	4C	2c	2cc	4f	4a	4c	4c	4a	4ff	8.ff
.	.	24c	.	.	.	.	.	.	.	.	.	.	.	.	.
.	.	24f	.	.	.	.	.	.	.	.	.	.	.	.	.
.	.	24A	.	.	.	.	.	.	.	.	.	.	.	.	.
.	.	24c	.	.	.	.	.	.	.	.	.	.	.	.	.
.	.	.	.	.	16g	.	.	.	.	.	.	.	.	.	16gg
.	.	24f	.	.	.	.	.	.	.	.	.	.	.	.	.
.	4C	24B-	4e	4B-	4gT	4C	.	.	4c	4g	4C	4C	8g	4ee	4ggT
.	.	24c	.	.	.	.	.	.	.	.	.	.	.	.	.
.	.	24e	.	.	.	.	.	.	.	.	.	.	.	.	.
.	.	24B-	.	.	.	.	.	.	.	.	.	.	8b-	.	.
.	.	24c	.	.	.	.	.	.	.	.	.	.	.	.	.
.	.	24e	.	.	.	.	.	.	.	.	.	.	.	.	.
.	.	.	.	.	16fQ	.	.	.	.	.	.	.	.	.	16ffQ
.	.	.	.	.	16gQ	.	.	.	.	.	.	.	.	.	16ggQ
=54	=54	=54	=54	=54	=54	=54	=54	=54	=54	=54	=54	=54	=54	=54	=54
*	*staff:12	*staff:13	*staff:14	*staff:15	*staff:16	*staff:17	*staff:18	*staff:18	*staff:19	*staff:19	*staff:20	*staff:20	*staff:21	*staff:21	*staff:22
2.ryy	24D-	24f	24f	24A- 24f	24f'	24FF	2.r	2.r	24F	24f	24D-	24D-	4a-	4ff	4ff
.	24D-	24f	24d-	24A- 24f	24a-'	24FF	.	.	24F	24f	24D-	24D-	.	.	.
.	24D-	24f	24d-	24A- 24f	24cc'	24FF	.	.	24F	24f	24D-	24D-	.	.	.
.	24D-	24f	24d-	24A- 24f	24dd-'	24FF	.	.	24F	24f	24D-	24D-	.	.	.
.	24D-	24f	24d-	24A- 24f	24ff'	24FF	.	.	24F	24f	24D-	24D-	.	.	.
.	24D-	24f	24d-	24A- 24f	24aa-X'	24FF	.	.	24F	24f	24D-	24D-	.	.	.
.	8D-	8f	8d-	24f	24ddd-X	24FF	.	.	8F	8f	8D-	8D-	4ryy	4r	4r
.	.	.	.	24a-X	24aa-	24FF	.	.	.	.	.	.	.	.	.
.	.	.	.	24g-	24gg-	24FF	.	.	.	.	.	.	.	.	.
.	24r	24r	24r	24f	24ff	24FF	.	.	8ryy	8r	24ryy	24r	.	.	.
.	24r	24r	24r	24e-	24ee-	24FF	.	.	.	.	24ryy	24r	.	.	.
.	24d-X	24d-	24dd-X	24d-	24dd-	24FF	.	.	.	.	24d-	24d-X	.	.	.
.	24c	24c	24cc	24c	24cc	24FF	.	.	4ryy	4r	24c	24c	4ryy	4r	4r
.	24B-	24B-	24b-	24B-	24b-	24FF	.	.	.	.	24B-	24B-	.	.	.
.	24A-	24A-	24a-	24A-	24a-	24FF	.	.	.	.	24A-	24A-	.	.	.
.	24G-	24G-	24g-	24g-	24g-X	24FF	.	.	.	.	24G-	24G-	.	.	.
.	24F	24F	24f	24f	24f	24FF	.	.	.	.	24F	24F	.	.	.
.	24E-	24E-	24e-	24e-	24e-X	24FF	.	.	.	.	24E-	24E-	.	.	.
=55	=55	=55	=55	=55	=55	=55	=55	=55	=55	=55	=55	=55	=55	=55	=55
2.ryy	24D-	24D-	24d-	24d-	24d-	24FF	2.r	2.r	2.F	2.f	4D-	4D-	[2.ff	2.aa-	2.aa-
.	24D-	24D-	24d-	24f	24f	24FF	.	.	.	.	.	.	.	.	.
.	24D-	24D-	24d-	24f	24a-	24FF	.	.	.	.	.	.	.	.	.
.	24D-	24D-	24d-	24f	24a-	24FF	.	.	.	.	.	.	.	.	.
.	24D-	24D-	24d-	24f	24a-	24FF	.	.	.	.	.	.	.	.	.
.	24D-	24D-	24d-	24f	24a-	24FF	.	.	.	.	.	.	.	.	.
.	24C	24C	24c	24c	24c	24FF	.	.	.	.	4C	4C	.	.	.
.	24C	24C	24c	24f	24f	24FF	.	.	.	.	.	.	.	.	.
.	24C	24C	24c	24f	24a-	24FF	.	.	.	.	.	.	.	.	.
.	24C	24C	24c	24f	24a-	24FF	.	.	.	.	.	.	.	.	.
.	24C	24C	24c	24f	24a-	24FF	.	.	.	.	.	.	.	.	.
.	24C	24C	24c	24f	24a-	24FF	.	.	.	.	.	.	.	.	.
.	24BBn	24BBn	24Bn	24Bn	24Bn	24FF	.	.	.	.	4BB	4BBn	.	.	.
.	24BB	24BB	24B	24f	24fn	24FF	.	.	.	.	.	.	.	.	.
.	24BB	24BB	24B	24f	24a-	24FF	.	.	.	.	.	.	.	.	.
.	24BB	24BB	24B	24f	24a-	24FF	.	.	.	.	.	.	.	.	.
.	24BB	24BB	24B	24f	24a-	24FF	.	.	.	.	.	.	.	.	.
.	24BB	24BB	24B	24f	24a-	24FF	.	.	.	.	.	.	.	.	.
=56	=56	=56	=56	=56	=56	=56	=56	=56	=56	=56	=56	=56	=56	=56	=56
2.ryy	24C	24C	24c	24c	24c	24C	2c	2c	4F	4f	4C	4C	4ff]	4aan	4aan
.	24C	24C	24f	24f	24f	24C	.	.	.	.	.	.	.	.	.
.	24C	24C	24f	24an	24an	24C	.	.	.	.	.	.	.	.	.
.	24C	24C	24f	24a	24cc	24C	.	.	.	.	.	.	.	.	.
.	24C	24C	24f	24a	24cc	24C	.	.	.	.	.	.	.	.	.
.	24C	24C	24f	24a	24cc	24C	.	.	.	.	.	.	.	.	.
.	8C'	8C'	8f'	8a'	8cc'	8C	.	.	4ryy	4r	4ryy	4r	4ryy	4r	4r
.	8r	8r	8r	8r	8r	8r	.	.	.	.	.	.	.	.	.
.	8C	8C	8G	8B-X	8en	4r	4ryy	4r	4ryy	4r	4ryy	4r	4ryy	4r	8een
.	8r	8r	8r	8r	8r	.	.	.	.	.	.	.	.	.	8r
*	*	*	*	*	*	*	*	*	*clefF4	*clefF4	*	*	*	*	*
=57	=57	=57	=57	=57	=57	=57	=57	=57	=57	=57	=57	=57	=57	=57	=57
*	*staff:1	*staff:2	*staff:3	*staff:4	*staff:5	*staff:6	*staff:7	*staff:7	*staff:8	*staff:8	*staff:9	*staff:9	*staff:10	*staff:10	*staff:11
2.ryy	4FF	[2.FF	2A	24A	24cc	4FF	2c	2c	2.FFF	[2.FF	4F	4F	4ryy	4r	24ccc
.	.	.	.	24c	24a	.	.	.	.	.	.	.	.	.	24aa
.	.	.	.	24f	24f	.	.	.	.	.	.	.	.	.	24ff
.	.	.	.	24A	24f	.	.	.	.	.	.	.	.	.	24ff
.	.	.	.	24c	24f	.	.	.	.	.	.	.	.	.	24ff
.	.	.	.	24f	24f	.	.	.	.	.	.	.	.	.	24ff
.	.	.	.	.	32gQ	.	.	.	.	.	.	.	.	.	32ggQ
.	.	.	.	.	32fQ	.	.	.	.	.	.	.	.	.	32ffQ
.	.	.	.	.	32eQ	.	.	.	.	.	.	.	.	.	32eeQ
.	4r	.	.	24A	8f	4r	.	.	.	.	4ryy	4r	4r	24aa	8ff
.	.	.	.	24c	.	.	.	.	.	.	.	.	.	24ff	.
.	.	.	.	24f	.	.	.	.	.	.	.	.	.	24cc	.
.	.	.	.	24A	8r	.	.	.	.	.	.	.	.	24cc	8r
.	.	.	.	24c	.	.	.	.	.	.	.	.	.	24cc	.
.	.	.	.	24f	.	.	.	.	.	.	.	.	.	24cc	.
.	4r	.	4B-	24B-	24g	24C	8e	8e	.	.	4B-	4d-	4ee	24dd-	24gg
.	.	.	.	24d-	24g	24C	.	.	.	.	.	.	.	24b-	24gg
.	.	.	.	24en	24g	24C	.	.	.	.	.	.	.	24g	24gg
.	.	.	.	24B-	24g	24C	8g	8g	.	.	.	.	.	24e	24gg
.	.	.	.	24d-	24a	24C	.	.	.	.	.	.	.	24f	24aa
.	.	.	.	24e	24b-	24C	.	.	.	.	.	.	.	24g	24bb-
=58	=58	=58	=58	=58	=58	=58	=58	=58	=58	=58	=58	=58	=58	=58	=58
2.ryy	4FF	2.FF]	2A	24A	24cc	4FF	4c	4cc	2.FFF	2.FF_	4A	4c	8ff	8a	24ccc
.	.	.	.	24c	24a	.	.	.	.	.	.	.	.	.	24aa
.	.	.	.	24f	24f	.	.	.	.	.	.	.	.	.	24ff
.	.	.	.	24A	24f	.	.	.	.	.	.	.	8ryy	8r	24ff
.	.	.	.	24c	24f	.	.	.	.	.	.	.	.	.	24ff
.	.	.	.	24f	24f	.	.	.	.	.	.	.	.	.	24ff
.	.	.	.	.	32gQ	.	.	.	.	.	.	.	.	.	32ggQ
.	.	.	.	.	32fQ	.	.	.	.	.	.	.	.	.	32ffQ
.	.	.	.	.	32eQ	.	.	.	.	.	.	.	.	.	32eeQ
.	4r	.	.	24A	8f	4r	4ryy	4r	.	.	4ryy	4r	4r	24aa	8ff
.	.	.	.	24c	.	.	.	.	.	.	.	.	.	24ff	.
.	.	.	.	24f	.	.	.	.	.	.	.	.	.	24cc'	.
.	.	.	.	24A	8r	.	.	.	.	.	.	.	.	24cc'	8r
.	.	.	.	24c	.	.	.	.	.	.	.	.	.	24cc'	.
.	.	.	.	24f	.	.	.	.	.	.	.	.	.	24cc'	.
.	4r	.	4B-	24B-	24g	24C	8e	8e	.	.	4B-	4d-	4ee	24dd-	24gg
.	.	.	.	24d-	24g	24C	.	.	.	.	.	.	.	24b-	24gg
.	.	.	.	24en	24g	24C	.	.	.	.	.	.	.	24g'	24gg
.	.	.	.	24B-	24g	24C	8g	8g	.	.	.	.	.	24e'	24gg
.	.	.	.	24d-	24a	24C	.	.	.	.	.	.	.	24f'	24aa
.	.	.	.	24e	24b-	24C	.	.	.	.	.	.	.	24g'	24bb-
=59	=59	=59	=59	=59	=59	=59	=59	=59	=59	=59	=59	=59	=59	=59	=59
2.ryy	8FF	8FF	8A	24A	24cc	24FF	2.c	[2.cc	8FFF	8FF]	[2.A	2.c	4ff	4an	24ccc
.	.	.	.	24c	24a	24FF	.	.	.	.	.	.	.	.	24aa
.	.	.	.	24f	24f	24FF	.	.	.	.	.	.	.	.	24ff
.	8r	8r	8ryy	24A	24f	24FF	.	.	8ryy	8r	.	.	.	.	24ff
.	.	.	.	24c	24f	24FF	.	.	.	.	.	.	.	.	24ff
.	.	.	.	24f	24f	24FF	.	.	.	.	.	.	.	.	24ff
.	8FF	8FF	8C 8A	24A	24a	24FF	.	.	4ryy	4r	.	.	4aa	4cc	24aa
.	.	.	.	24c	24f	24FF	.	.	.	.	.	.	.	.	24ff
.	.	.	.	24f	24c	24FF	.	.	.	.	.	.	.	.	24cc
.	8r	8r	8r	24A	24c	24FF	.	.	.	.	.	.	.	.	24cc
.	.	.	.	24c	24c	24FF	.	.	.	.	.	.	.	.	24cc
.	.	.	.	24f	24c	24FF	.	.	.	.	.	.	.	.	24cc
.	8FF	8FF	8C 8A	24A	24f	24FF	.	.	4ryy	4r	.	.	4ff	4ff	24ff
.	.	.	.	24c	24c	24FF	.	.	.	.	.	.	.	.	24cc
.	.	.	.	24f	24A	24FF	.	.	.	.	.	.	.	.	24a
.	8r	8r	8r	24A	24A	24FF	.	.	.	.	.	.	.	.	24a
.	.	.	.	24c	24A	24FF	.	.	.	.	.	.	.	.	24a
.	.	.	.	24f	24A	24FF	.	.	.	.	.	.	.	.	24a
=60	=60	=60	=60	=60	=60	=60	=60	=60	=60	=60	=60	=60	=60	=60	=60
2.ryy	2.FF;	2.FF;	2.C; 2.A;y	2.c;	2.A;	16FF;	2.c;	2.cc;]y	2.FFF;	2.FF;y	2.A;]y	2.c;	2.cc;y	2.aa;	2.fff;
.	.	.	.	.	.	16FF;	.	.	.	.	.	.	.	.	.
.	.	.	.	.	.	16FF;	.	.	.	.	.	.	.	.	.
.	.	.	.	.	.	16FF;	.	.	.	.	.	.	.	.	.
.	.	.	.	.	.	16FF;	.	.	.	.	.	.	.	.	.
.	.	.	.	.	.	16FF;	.	.	.	.	.	.	.	.	.
.	.	.	.	.	.	16FF;	.	.	.	.	.	.	.	.	.
.	.	.	.	.	.	16FF;	.	.	.	.	.	.	.	.	.
.	.	.	.	.	.	16FF;	.	.	.	.	.	.	.	.	.
.	.	.	.	.	.	16FF;	.	.	.	.	.	.	.	.	.
.	.	.	.	.	.	16FF;	.	.	.	.	.	.	.	.	.
.	.	.	.	.	.	16FF;	.	.	.	.	.	.	.	.	.
==61	==61	==61	==61	==61	==61	==61	==61	==61	==61	==61	==61	==61	==61	==61	==61
*-	*-	*-	*-	*-	*-	*-	*-	*-	*-	*-	*-	*-	*-	*-	*-
